!!!!SEGMENT: pl-stab--26a--007_nowakiewicz-kazimierz--missa-in-d-benedictus.krn
!!!cenid: 18xx:3517
!!!COM: Nowakiewicz, Kazimierz
!!!COM-rismid: pe30020309
!!!CDT: <1800->1824
!!!CNT: Polish
!!!OPR: Missa in D
!!!OTL: Benedictus
!!!OMV: 007
!!!PDT: 1810
!!!AGN:
!!!SMS-siglum: PL-STAb
!!!SMS-shelfmark: 26a
!!!SMS-shelfwork: M
!!!SMS-variant:
!!!SMS-altvar:
!!!NIFC-rismid: 301050704
!!!URL-scan: https://repozytorium.nifc.pl/islandora/object/pl-stab%3A3636/datastream/PDF/view
!!!ONB-nifc: UWAGA: części Mszy: 1. Kyrie, 2. Gloria, 3. Credo, 4. Et incarnatus, 5. Et resurrexit, 6. Sanctus, 7. Benedictus, 8. Osanna, 9. Agnus Dei, 10. Dona nobis
!!!AIN: 1 alto 1 bass 2 cor 2 oboe 1 organ 1 soprn 1 tenor 1 viola 1 violn
!!!key: A
**kern	**dynam	**kern	**kern	**dynam	**kern	**text	**kern	**text	**kern	**text	**dynam	**kern	**text	**dynam	**kern	**dynam	**kern	**dynam	**kern	**dynam	**kern	**dynam
*	*	*group4	*group4	*	*group3	*	*group3	*	*group3	*	*	*group3	*	*	*group2	*	*group2	*	*group1	*	*group1	*
*part11	*part11	*part10	*part9	*part9	*part8	*part8	*part7	*part7	*part6	*part6	*part6	*part5	*part5	*part5	*part4	*part4	*part3	*part3	*part2	*part2	*part1	*part1
*staff11	*	*staff10	*staff9	*	*staff8	*staff8	*staff7	*staff7	*staff6	*staff6	*	*staff5	*staff5	*	*staff4	*	*staff3	*	*staff2	*	*staff1	*
*I"Organo.	*	*I"Alto Viola	*I"Violino SecuNdo 1mo	*	*I"Baſso	*	*I"Tenor	*	*I"Alto	*	*	*I"Canto	*	*	*I"Clarino Secundo et Cornu	*	*I"Clarino Primo et Cornu	*	*I"Oboe Secundo	*	*I"Oboe Primo	*
*I'org	*	*I'vla	*I'vl 1	*	*I'B	*	*I'T	*	*I'A	*	*	*I'S	*	*	*I'cor & clno 2 in G	*	*I'cor & clno 1 in G	*	*I'ob 2	*	*I'ob 1	*
*Iorgan	*	*Iviola	*Ivioln	*	*Ibass	*	*Itenor	*	*Ialto	*	*	*Isoprn	*	*	*Icor	*	*Icor	*	*Ioboe	*	*Ioboe	*
*ICklav	*	*ICstr	*ICstr	*	*ICvox	*	*ICvox	*	*ICvox	*	*	*ICvox	*	*	*ICbras	*	*ICbras	*	*ICww	*	*ICww	*
*IGcont	*	*	*	*	*	*	*	*	*	*	*	*	*	*	*	*	*	*	*	*	*	*
*clefF4	*	*clefC3	*clefG2	*	*clefF4	*	*clefC4	*	*clefC3	*	*	*clefC1	*	*	*clefG2	*	*clefG2	*	*clefG2	*	*clefG2	*
*	*	*	*	*	*	*	*	*	*	*	*	*	*	*	*ITrd2c3	*	*ITrd2c3	*	*	*	*	*
*k[f#c#g#]	*	*k[f#c#g#]	*k[f#c#g#]	*	*k[f#c#g#]	*	*k[f#c#g#]	*	*k[f#c#g#]	*	*	*k[f#c#g#]	*	*	*k[f#c#g#]	*	*k[f#c#g#]	*	*k[f#c#g#]	*	*k[f#c#g#]	*
*A:	*	*A:	*A:	*	*A:	*	*A:	*	*A:	*	*	*A:	*	*	*A:	*	*A:	*	*A:	*	*A:	*
*M2/4	*	*M2/4	*M2/4	*	*M2/4	*	*M2/4	*	*M2/4	*	*	*M2/4	*	*	*M2/4	*	*M2/4	*	*M2/4	*	*M2/4	*
*2\right	*	*2\right	*2\right	*	*2\right	*	*2\right	*	*2\right	*	*	*2\right	*	*	*2\right	*	*2\right	*	*2\right	*	*2\right	*
!	!	!	!	!	!	!	!	!	!	!	!	!	!	!	!	!	!LO:TX:t=P:problem=inne tempo	!	!	!	!LO:TX:a:i:t=adagio	!
!LO:TX:a:i:t=adagio	!	!LO:TX:a:i:t=adagio	!LO:TX:a:i:t=adagio	!	!LO:TX:a:i:t=adagio	!	!LO:TX:a:i:t=adagio	!	!LO:TX:a:i:t=adagio	!	!	!LO:TX:a:i:t=adagio	!	!	!LO:TX:a:i:t=in A. adagio	!	!LO:TX:a:i:t=in A andante	!	!LO:TX:a:i:t=adagio	!	!	!
!	!	!	!	!	!	!	!	!	!	!	!	!	!	!	!	!	!	!	!	!	!LO:TX:t=P:znaki:cc#ff#gg#:problem	!
!	!	!	!	!	!	!	!	!	!	!	!	!	!	!	!	!	!	!	!LO:TX:t=P:znaki:cc#ff#g#:problem	!	!	!
!	!	!	!	!	!	!	!	!	!	!	!	!LO:TX:t=P:znaki:f#cc#g#:problem	!	!	!	!	!	!	!	!	!	!
!	!	!	!	!	!	!	!	!	!LO:TX:t=P:znaki:c#f#g#:problem	!	!	!	!	!	!	!	!	!	!	!	!	!
!	!	!	!	!	!LO:TX:t=P:znaki:F#G#C#:problem	!	!	!	!	!	!	!	!	!	!	!	!	!	!	!	!	!
!	!	!	!LO:TX:t=P:znaki:cc#gg#ff#:problem	!	!	!	!	!	!	!	!	!	!	!	!	!	!	!	!	!	!	!
!	!	!LO:TX:t=P:znaki:c#g#f#:problem	!	!	!	!	!	!	!	!	!	!	!	!	!	!	!	!	!	!	!	!
!LO:TX:t=P:C#F#GG#:problem	!	!LO:TX:t=P:problem=partia wpisana inną ręką	!	!	!	!	!	!	!	!	!	!	!	!	!	!	!	!	!	!	!	!
8r	.	8r	8r	.	8ryy	.	8ryy	.	8ryy	.	.	8ryy	.	.	8r	.	8r	.	8r	.	8r	.
=1	=1	=1	=1	=1	=1	=1	=1	=1	=1	=1	=1	=1	=1	=1	=1	=1	=1	=1	=1	=1	=1	=1
!	!	!	!	!LO:DY:b:t=po	!	!	!	!	!	!	!	!	!	!	!	!	!	!	!	!	!	!
!	!LO:DY:b:t=pp.	!	!	!	!	!	!	!	!	!	!	!	!	!	!	!	!	!	!	!	!	!
8A\	pp	16r	8r	p	2r	.	2r	.	2r	.	.	2r	.	.	2r	.	2r	.	2r	.	2r	.
.	.	16e\LL	.	.	.	.	.	.	.	.	.	.	.	.	.	.	.	.	.	.	.	.
8r	.	16c#\	(32A/LLL	.	.	.	.	.	.	.	.	.	.	.	.	.	.	.	.	.	.	.
.	.	.	32c#/	.	.	.	.	.	.	.	.	.	.	.	.	.	.	.	.	.	.	.
.	.	16e\JJ	32e/	.	.	.	.	.	.	.	.	.	.	.	.	.	.	.	.	.	.	.
.	.	.	32c#/JJJ)	.	.	.	.	.	.	.	.	.	.	.	.	.	.	.	.	.	.	.
8AA/	.	8c#\	8A/	.	.	.	.	.	.	.	.	.	.	.	.	.	.	.	.	.	.	.
8r	.	8r	8r	.	.	.	.	.	.	.	.	.	.	.	.	.	.	.	.	.	.	.
=2	=2	=2	=2	=2	=2	=2	=2	=2	=2	=2	=2	=2	=2	=2	=2	=2	=2	=2	=2	=2	=2	=2
8E\	.	16r	8r	.	2r	.	2r	.	2r	.	.	2r	.	.	2r	.	2r	.	2r	.	2r	.
.	.	16e/LL	.	.	.	.	.	.	.	.	.	.	.	.	.	.	.	.	.	.	.	.
8r	.	16B/	(32G#/LLL	.	.	.	.	.	.	.	.	.	.	.	.	.	.	.	.	.	.	.
.	.	.	32B/	.	.	.	.	.	.	.	.	.	.	.	.	.	.	.	.	.	.	.
.	.	16G#/JJ	32e/	.	.	.	.	.	.	.	.	.	.	.	.	.	.	.	.	.	.	.
.	.	.	32B/JJJ)	.	.	.	.	.	.	.	.	.	.	.	.	.	.	.	.	.	.	.
8e\	.	8E/	8G#/	.	.	.	.	.	.	.	.	.	.	.	.	.	.	.	.	.	.	.
8r	.	8r	8r	.	.	.	.	.	.	.	.	.	.	.	.	.	.	.	.	.	.	.
=3	=3	=3	=3	=3	=3	=3	=3	=3	=3	=3	=3	=3	=3	=3	=3	=3	=3	=3	=3	=3	=3	=3
8E\	.	16r	16r	.	2r	.	2r	.	2r	.	.	2r	.	.	2r	.	2r	.	2r	.	2r	.
.	.	16d\LL	16g#/LL	.	.	.	.	.	.	.	.	.	.	.	.	.	.	.	.	.	.	.
8r	.	16d\JJ	16g#/JJ	.	.	.	.	.	.	.	.	.	.	.	.	.	.	.	.	.	.	.
.	.	16r	16r	.	.	.	.	.	.	.	.	.	.	.	.	.	.	.	.	.	.	.
8G#\	.	4r	4r	.	.	.	.	.	.	.	.	.	.	.	.	.	.	.	.	.	.	.
8r	.	.	.	.	.	.	.	.	.	.	.	.	.	.	.	.	.	.	.	.	.	.
=4	=4	=4	=4	=4	=4	=4	=4	=4	=4	=4	=4	=4	=4	=4	=4	=4	=4	=4	=4	=4	=4	=4
8r	.	8r	8r	.	2r	.	2r	.	2r	.	.	2r	.	.	8r	.	8r	.	8r	.	8r	.
!LO:TX:t=P:problem=mixed beam	!	!	!	!	!	!	!	!	!	!	!	!	!	!	!LO:TX:t=P:problem=mixed beam	!	!	!	!	!	!	!
!	!	!	!	!	!	!	!	!	!	!	!	!	!	!	!	!	!	!	!	!	!	!LO:DY:b:t=p.
!	!	!	!	!	!	!	!	!	!	!	!	!	!	!	!	!	!	!	!	!LO:DY:b:t=po.	!	!
!	!	!	!	!	!	!	!	!	!	!	!	!	!	!	!	!	!	!LO:DY:b:t=po	!	!	!	!
!	!	!	!	!	!	!	!	!	!	!	!	!	!	!	!	!LO:DY:b:t=po	!	!	!	!	!	!
8A\L	.	8A/L	8e/L	.	.	.	.	.	.	.	.	.	.	.	8a\L	p	8cc#\L	p	8ee\L	p	8ccc#'\L	p
8AA/J	.	8A/J	8c#/J	.	.	.	.	.	.	.	.	.	.	.	8c#/J	.	8a\J	.	8cc#\J	.	8aa'\J	.
8r	.	8r	8r	.	.	.	.	.	.	.	.	.	.	.	8r	.	8r	.	8r	.	8r	.
=5	=5	=5	=5	=5	=5	=5	=5	=5	=5	=5	=5	=5	=5	=5	=5	=5	=5	=5	=5	=5	=5	=5
*	*	*tremolo	*	*	*	*	*	*	*	*	*	*	*	*	*	*	*	*	*	*	*	*
!	!	!	!	!LO:DY:b	!	!	!	!	!	!	!	!	!	!	!	!	!	!	!	!	!	!
8r	.	16d/LL	8d/	p	2r	.	2r	.	2r	.	.	2r	.	.	2r	.	2r	.	2r	.	2r	.
.	.	16B/	.	.	.	.	.	.	.	.	.	.	.	.	.	.	.	.	.	.	.	.
8D\	.	16d/	8r	.	.	.	.	.	.	.	.	.	.	.	.	.	.	.	.	.	.	.
.	.	16B/	.	.	.	.	.	.	.	.	.	.	.	.	.	.	.	.	.	.	.	.
8r	.	16d/	8d/	.	.	.	.	.	.	.	.	.	.	.	.	.	.	.	.	.	.	.
.	.	16B/	.	.	.	.	.	.	.	.	.	.	.	.	.	.	.	.	.	.	.	.
8d\	.	16d/	8r	.	.	.	.	.	.	.	.	.	.	.	.	.	.	.	.	.	.	.
.	.	16B/JJ	.	.	.	.	.	.	.	.	.	.	.	.	.	.	.	.	.	.	.	.
=6	=6	=6	=6	=6	=6	=6	=6	=6	=6	=6	=6	=6	=6	=6	=6	=6	=6	=6	=6	=6	=6	=6
!	!	!LO:TX:t=P:problem=mixed beam	!	!	!	!	!	!	!	!	!	!	!	!	!	!	!	!	!	!	!	!
!LO:LB:g=original	!	!	!LO:LB:g=original	!	!	!	!	!	!	!	!	!	!	!	!	!	!	!	!	!	!	!
8r	.	16d\LL	8d/	.	2r	.	2r	.	2r	.	.	2r	.	.	2r	.	2r	.	2r	.	2r	.
.	.	16B/	.	.	.	.	.	.	.	.	.	.	.	.	.	.	.	.	.	.	.	.
8D\L	.	16d\	8r	.	.	.	.	.	.	.	.	.	.	.	.	.	.	.	.	.	.	.
.	.	16B/	.	.	.	.	.	.	.	.	.	.	.	.	.	.	.	.	.	.	.	.
8d\J	.	16d\	8d/	.	.	.	.	.	.	.	.	.	.	.	.	.	.	.	.	.	.	.
.	.	16B/	.	.	.	.	.	.	.	.	.	.	.	.	.	.	.	.	.	.	.	.
8r	.	16d\	8r	.	.	.	.	.	.	.	.	.	.	.	.	.	.	.	.	.	.	.
.	.	16B/JJ	.	.	.	.	.	.	.	.	.	.	.	.	.	.	.	.	.	.	.	.
*	*	*Xtremolo	*	*	*	*	*	*	*	*	*	*	*	*	*	*	*	*	*	*	*	*
=7	=7	=7	=7	=7	=7	=7	=7	=7	=7	=7	=7	=7	=7	=7	=7	=7	=7	=7	=7	=7	=7	=7
8c#\	.	16c#/LL	8r	.	2r	.	2r	.	2r	.	.	2r	.	.	8r	.	8r	.	8r	.	8r	.
.	.	16A/	.	.	.	.	.	.	.	.	.	.	.	.	.	.	.	.	.	.	.	.
8r	.	16c#/	8c#/L	.	.	.	.	.	.	.	.	.	.	.	8c#/L	.	8a\L	.	8cc#\L	.	8aa\L	.
.	.	16G#/JJ	.	.	.	.	.	.	.	.	.	.	.	.	.	.	.	.	.	.	.	.
8r	.	8c#\	8c#/J	.	.	.	.	.	.	.	.	.	.	.	8c#/J	.	8a\J	.	8cc#\J	.	8aa\J	.
(8C#/	.	8r	8r	.	.	.	.	.	.	.	.	.	.	.	8r	.	8r	.	8r	.	8r	.
=8	=8	=8	=8	=8	=8	=8	=8	=8	=8	=8	=8	=8	=8	=8	=8	=8	=8	=8	=8	=8	=8	=8
!	!	!LO:LB:g=original	!	!	!	!	!	!	!	!	!	!	!	!	!	!	!	!	!	!	!	!
8BB/)	.	(8G#/L	8B/	.	2r	.	2r	.	2r	.	.	2r	.	.	8e/	.	8b\	.	8b\	.	8dd\	.
8r	.	8B/)	4d/	.	.	.	.	.	.	.	.	.	.	.	8r	.	8r	.	8r	.	8r	.
8GG#/	.	8B'/	.	.	.	.	.	.	.	.	.	.	.	.	8e/	.	8b\	.	8b\	.	8dd\	.
8r	.	8E'/J	8B/	.	.	.	.	.	.	.	.	.	.	.	8r	.	8r	.	8r	.	8r	.
=9	=9	=9	=9	=9	=9	=9	=9	=9	=9	=9	=9	=9	=9	=9	=9	=9	=9	=9	=9	=9	=9	=9
8AA/	.	8A/	16A/	.	2r	.	2r	.	2r	.	.	2r	.	.	8c#/	.	8a\	.	8a/	.	8cc#\	.
.	.	.	16r	.	.	.	.	.	.	.	.	.	.	.	.	.	.	.	.	.	.	.
8r	.	8r	16c#/	.	.	.	.	.	.	.	.	.	.	.	8r	.	8r	.	8r	.	8r	.
.	.	.	16r	.	.	.	.	.	.	.	.	.	.	.	.	.	.	.	.	.	.	.
8C#/	.	4r	16e/	.	.	.	.	.	.	.	.	.	.	.	4r	.	4r	.	4r	.	4r	.
.	.	.	16r	.	.	.	.	.	.	.	.	.	.	.	.	.	.	.	.	.	.	.
8r	.	.	16a/	.	.	.	.	.	.	.	.	.	.	.	.	.	.	.	.	.	.	.
.	.	.	16r	.	.	.	.	.	.	.	.	.	.	.	.	.	.	.	.	.	.	.
=10	=10	=10	=10	=10	=10	=10	=10	=10	=10	=10	=10	=10	=10	=10	=10	=10	=10	=10	=10	=10	=10	=10
8A\	.	8A/	16cc#\	.	2r	.	2r	.	2r	.	.	2r	.	.	2r	.	2r	.	2r	.	2r	.
.	.	.	16r	.	.	.	.	.	.	.	.	.	.	.	.	.	.	.	.	.	.	.
8r	.	8r	16cc#\	.	.	.	.	.	.	.	.	.	.	.	.	.	.	.	.	.	.	.
.	.	.	16r	.	.	.	.	.	.	.	.	.	.	.	.	.	.	.	.	.	.	.
8C#/	.	8a\	16e/	.	.	.	.	.	.	.	.	.	.	.	.	.	.	.	.	.	.	.
.	.	.	16r	.	.	.	.	.	.	.	.	.	.	.	.	.	.	.	.	.	.	.
8r	.	8r	16c#/	.	.	.	.	.	.	.	.	.	.	.	.	.	.	.	.	.	.	.
.	.	.	16r	.	.	.	.	.	.	.	.	.	.	.	.	.	.	.	.	.	.	.
=11	=11	=11	=11	=11	=11	=11	=11	=11	=11	=11	=11	=11	=11	=11	=11	=11	=11	=11	=11	=11	=11	=11
!	!	!	!	!	!	!	!	!	!	!	!	!	!	!	!	!	!	!	!	!	!LO:LB:g=original	!
!	!	!	!	!	!	!	!	!	!	!	!	!	!	!	!	!	!	!	!	!	!	!LO:DY:b:t=po
!	!	!	!	!	!	!	!	!	!	!	!	!	!	!	!	!	!	!	!	!LO:DY:b:t=po	!	!
8E\	.	8d\	16e/	.	2r	.	2r	.	2r	.	.	2r	.	.	8e/L	.	8b\L	.	8b/L	p	8dd\L	p
.	.	.	16r	.	.	.	.	.	.	.	.	.	.	.	.	.	.	.	.	.	.	.
8r	.	8r	16e/	.	.	.	.	.	.	.	.	.	.	.	8e/J	.	8b\	.	8g#/	.	8b\J	.
.	.	.	16r	.	.	.	.	.	.	.	.	.	.	.	.	.	.	.	.	.	.	.
8e\	.	8e\	8b\	.	.	.	.	.	.	.	.	.	.	.	8e/	.	8b\J	.	8d/J	.	8g#/	.
8r	.	8r	8r	.	.	.	.	.	.	.	.	.	.	.	8r	.	8r	.	8r	.	8r	.
=12	=12	=12	=12	=12	=12	=12	=12	=12	=12	=12	=12	=12	=12	=12	=12	=12	=12	=12	=12	=12	=12	=12
!	!	!	!	!	!	!	!	!	!	!	!	!	!	!	!	!	!	!	!LO:LB:g=original	!	!	!
8A\	.	8f#\	8r	.	2r	.	2r	.	2r	.	.	2r	.	.	2r	.	2r	.	16r	.	16r	.
.	.	.	.	.	.	.	.	.	.	.	.	.	.	.	.	.	.	.	16cc#\LL	.	16ff#'\LL	.
8r	.	8r	8a/L	.	.	.	.	.	.	.	.	.	.	.	.	.	.	.	16cc#\	.	16ff#'\	.
.	.	.	.	.	.	.	.	.	.	.	.	.	.	.	.	.	.	.	16cc#\JJ	.	16ff#'\JJ	.
8F#\	.	8F#/	8f#/J	.	.	.	.	.	.	.	.	.	.	.	.	.	.	.	8cc#\	.	8ff#'\	.
8r	.	8r	8r	.	.	.	.	.	.	.	.	.	.	.	.	.	.	.	8r	.	8r	.
=13	=13	=13	=13	=13	=13	=13	=13	=13	=13	=13	=13	=13	=13	=13	=13	=13	=13	=13	=13	=13	=13	=13
8G#\	.	8E/	16r	.	2r	.	2r	.	2r	.	.	2r	.	.	16r	.	16r	.	16r	.	16r	.
.	.	.	16e/LL	.	.	.	.	.	.	.	.	.	.	.	16g#\LL	.	16b\LL	.	16b\LL	.	16gg#\LL	.
8r	.	8r	16e/	.	.	.	.	.	.	.	.	.	.	.	16g#\	.	16b\	.	16b\	.	16gg#\	.
.	.	.	16e/JJ	.	.	.	.	.	.	.	.	.	.	.	16g#\JJ	.	16b\JJ	.	16b\JJ	.	16gg#\JJ	.
8.r	.	8.r	8.r	.	.	.	.	.	.	.	.	.	.	.	8g#\	.	8b\	.	8b\	.	8gg#\	.
.	.	.	.	.	.	.	.	.	.	.	.	.	.	.	8r	.	8r	.	8r	.	8r	.
(16D#X\	.	16b\	16f#/	.	.	.	.	.	.	.	.	.	.	.	.	.	.	.	.	.	.	.
=14	=14	=14	=14	=14	=14	=14	=14	=14	=14	=14	=14	=14	=14	=14	=14	=14	=14	=14	=14	=14	=14	=14
!	!	!	!	!	!	!	!	!	!	!	!	!	!	!	!	!	!LO:LB:g=original	!	!	!	!	!
!	!	!	!LO:LB:g=original	!	!	!	!	!	!	!	!	!	!	!	!	!	!	!	!	!	!	!
8E\)	.	8B/	8e/	.	2r	.	2r	.	2r	.	.	2r	.	.	2r	.	2r	.	8r	.	8r	.
8r	.	(8A/L	(8a/L	.	.	.	.	.	.	.	.	.	.	.	.	.	.	.	8cc#\L	>	8aa\L	>
4r	.	8G#X/	8b/	.	.	.	.	.	.	.	.	.	.	.	.	.	.	.	8dd\	.	8bb\	.
.	.	8A/J)	8a/J)	.	.	.	.	.	.	.	.	.	.	.	.	.	.	.	8cc#\J	]]	8aa\J	]]
=15	=15	=15	=15	=15	=15	=15	=15	=15	=15	=15	=15	=15	=15	=15	=15	=15	=15	=15	=15	=15	=15	=15
!LO:LB:g=original	!	!	!	!	!	!	!	!	!	!	!	!	!	!	!	!	!	!	!	!	!	!
8Dn\	.	8D/	8g#/	.	2r	.	2r	.	2r	.	.	2r	.	.	8e/	.	8b\	.	8b\	.	8gg#\	.
8r	.	8r	8r	.	.	.	.	.	.	.	.	.	.	.	8r	.	8r	.	8r	.	8r	.
8.r	.	8.r	8.r	.	.	.	.	.	.	.	.	.	.	.	4r	.	4r	.	4r	.	4r	.
(16BB/	.	16D/	16e/	.	.	.	.	.	.	.	.	.	.	.	.	.	.	.	.	.	.	.
=16	=16	=16	=16	=16	=16	=16	=16	=16	=16	=16	=16	=16	=16	=16	=16	=16	=16	=16	=16	=16	=16	=16
8AA/)	.	8C#/	8e/	.	2r	.	2r	.	2r	.	.	2r	.	.	8c#/	.	8a\	.	8r	.	8r	.
8r	.	(8A/L	(8a/L	.	.	.	.	.	.	.	.	.	.	.	8r	.	8r	.	8cc#\L	>	8aa\L	>
4r	.	8G#/	8b/	.	.	.	.	.	.	.	.	.	.	.	4r	.	4r	.	8dd\	.	8bb\	.
.	.	8A/J)	8a/J)	.	.	.	.	.	.	.	.	.	.	.	.	.	.	.	8cc#\J	]]	8aa\J	]]
=17	=17	=17	=17	=17	=17	=17	=17	=17	=17	=17	=17	=17	=17	=17	=17	=17	=17	=17	=17	=17	=17	=17
!	!	!	!	!	!	!	!	!	!	!	!	!	!	!	!LO:LB:g=original	!	!	!	!	!	!	!
!	!	!LO:LB:g=original	!	!	!	!	!	!	!	!	!	!	!	!	!	!	!	!	!	!	!	!
8D\	.	8E/	8g#/	.	2r	.	2r	.	2r	.	.	2r	.	.	8e/	.	8b\	.	8b\	.	8gg#\	.
8r	.	8r	8r	.	.	.	.	.	.	.	.	.	.	.	8r	.	8r	.	8r	.	8r	.
8E\	.	8e\	8g#/	.	.	.	.	.	.	.	.	.	.	.	8e/	.	8b\	.	8dd\	.	8gg#\	.
8r	.	8r	8r	.	.	.	.	.	.	.	.	.	.	.	8r	.	8r	.	8r	.	8r	.
=18	=18	=18	=18	=18	=18	=18	=18	=18	=18	=18	=18	=18	=18	=18	=18	=18	=18	=18	=18	=18	=18	=18
8AA/	.	8c#\	8e/	.	2r	.	2r	.	2r	.	.	2r	.	.	8c#/	.	8a\	.	8cc#\	.	8aa\	.
8r	.	8r	8r	.	.	.	.	.	.	.	.	.	.	.	8r	.	8r	.	8r	.	8r	.
4r	.	4r	4r	.	.	.	.	.	.	.	.	.	.	.	4r	.	4r	.	4r	.	4r	.
=19	=19	=19	=19	=19	=19	=19	=19	=19	=19	=19	=19	=19	=19	=19	=19	=19	=19	=19	=19	=19	=19	=19
4r	.	4r	4r	.	2r	.	2r	.	2r	.	.	2r	.	.	4r	.	4r	.	4r	.	4r	.
!	!	!LO:TX:t=P:problem=mixed beam	!	!	!	!	!	!	!	!	!	!	!	!	!	!	!	!	!	!	!	!LO:HP:t=cres
!	!	!	!	!	!	!	!	!	!	!	!	!	!	!	!	!	!	!	!	!LO:HP:t=cres	!	!
!	!	!	!	!	!	!	!	!	!	!	!	!	!	!	!	!	!	!LO:HP:t=cres	!	!	!	!
!	!	!	!	!	!	!	!	!	!	!	!	!	!	!	!	!LO:HP:t=cres	!	!	!	!	!	!
16A\LL	.	8e\L	8c#/L	.	.	.	.	.	.	.	.	.	.	.	8c#/L	<	8a\L	<	8aa\L	<	8ccc#\L	<
16E\	.	.	.	.	.	.	.	.	.	.	.	.	.	.	.	.	.	.	.	.	.	.
16G#\	.	8E/J	8B/J	.	.	.	.	.	.	.	.	.	.	.	8e/J	.	8b\J	.	8gg#\J	.	8bb\J	.
16E\JJ	.	.	.	.	.	.	.	.	.	.	.	.	.	.	.	.	.	.	.	.	.	.
=20	=20	=20	=20	=20	=20	=20	=20	=20	=20	=20	=20	=20	=20	=20	=20	=20	=20	=20	=20	=20	=20	=20
!	!	!	!	!	!	!	!	!	!	!	!	!LO:TX:a:i:t=Solo	!	!	!	!	!	!	!	!	!	!
8A\	.	8A/	8A/	.	2r	.	2r	.	2r	.	.	4r	.	.	8c#/	.	8a\	.	8aa\	.	8aa\	.
8r	.	8r	8r	.	.	.	.	.	.	.	.	.	.	.	8r	.	8r	.	8r	.	8r	.
4r	.	4r	4r	.	.	.	.	.	.	.	.	8r	.	.	4r	.	4r	.	4r	.	4r	.
!	!	!	!	!	!	!	!	!	!	!	!	!	!	!LO:DY:b:t=po	!	!	!	!	!	!	!	!
.	.	.	.	.	.	.	.	.	.	.	.	16.ee\	Be-	p	.	.	.	.	.	.	.	.
.	.	.	.	.	.	.	.	.	.	.	.	32ee\	-ne-	.	.	.	.	.	.	.	.	.
=21	=21	=21	=21	=21	=21	=21	=21	=21	=21	=21	=21	=21	=21	=21	=21	=21	=21	=21	=21	=21	=21	=21
8A\	.	8A/L	16r	.	8r	.	8r	.	8r	.	.	8aa\	-dic-	.	2r	.	2r	.	2r	.	2r	.
.	.	.	16c#/LL	.	.	.	.	.	.	.	.	.	.	.	.	.	.	.	.	.	.	.
!	!	!	!	!	!	!	!	!	!	!	!LO:DY:a:t=po	!	!	!	!	!	!	!	!	!	!	!
8r	.	8A/	16A/	.	16A\	Be-	16c#\	Be-	16a\	Be-	p	8a\	-tus	.	.	.	.	.	.	.	.	.
.	.	.	16c#/JJ	.	16A\	-ne-	16c#\	-ne-	16a\	-ne-	.	.	.	.	.	.	.	.	.	.	.	.
!	!	!	!	!	!LO:TX:t=P:problem=mixed beam	!	!	!	!	!	!	!	!	!	!	!	!	!	!	!	!	!
8AA/	.	8A/J	8A/	.	8A\L	-dic-	8e\	-dic-	8cc#\	-dic-	.	16r	.	.	.	.	.	.	.	.	.	.
.	.	.	.	.	.	.	.	.	.	.	.	16a\LL	qui	.	.	.	.	.	.	.	.	.
8r	.	8r	8r	.	8AA/J	-tus	8c#\	-tus	8a\	-tus	.	16cc#\	.	.	.	.	.	.	.	.	.	.
.	.	.	.	.	.	.	.	.	.	.	.	[16ee\JJ	.	.	.	.	.	.	.	.	.	.
=22	=22	=22	=22	=22	=22	=22	=22	=22	=22	=22	=22	=22	=22	=22	=22	=22	=22	=22	=22	=22	=22	=22
!	!	!	!	!	!	!	!	!	!	!	!	!	!	!	!	!	!	!	!	!	!LO:LB:g=original	!
!	!	!	!	!	!	!	!	!	!	!	!	!	!	!	!	!	!	!	!LO:LB:g=original	!	!	!
8E\	.	8G#/L	16r	.	8.r	.	8.r	.	8.r	.	.	16ee\LL]	.	.	8r	.	8r	.	8r	.	8r	.
.	.	.	16G#/LL	.	.	.	.	.	.	.	.	16b\J	ve-	.	.	.	.	.	.	.	.	.
8r	.	8E/	16G#/	.	.	.	.	.	.	.	.	8b\J	-nit	.	8e/L	.	8b\L	.	8b\L	.	8gg#\L	.
.	.	.	16B/JJ	.	16E\	qui	16d\	qui	16b\	qui	.	.	.	.	.	.	.	.	.	.	.	.
8e\	.	8E/J	8G#/	.	8E\	ve-	8d\L	ve-	8b\	ve-	.	16r	.	.	8e/J	.	8b\J	.	8b\J	.	8gg#\J	.
.	.	.	.	.	.	.	.	.	.	.	.	32e/LLL	in	.	.	.	.	.	.	.	.	.
.	.	.	.	.	.	.	.	.	.	.	.	(32f#/JJJ	no-	.	.	.	.	.	.	.	.	.
8r	.	8r	8r	.	8G#\	-nit	8B\J	-nit	8e\	-nit	.	32g#/LLL	.	.	8r	.	8r	.	8r	.	8r	.
.	.	.	.	.	.	.	.	.	.	.	.	32a/	.	.	.	.	.	.	.	.	.	.
.	.	.	.	.	.	.	.	.	.	.	.	32b/	.	.	.	.	.	.	.	.	.	.
.	.	.	.	.	.	.	.	.	.	.	.	32cc#/JJJ)	.	.	.	.	.	.	.	.	.	.
=23	=23	=23	=23	=23	=23	=23	=23	=23	=23	=23	=23	=23	=23	=23	=23	=23	=23	=23	=23	=23	=23	=23
*	*	*tremolo	*	*	*	*	*	*	*	*	*	*	*	*	*	*	*	*	*	*	*	*
!	!	!	!	!	!	!	!LO:LB:g=original	!	!	!	!	!	!	!	!	!	!	!	!	!	!	!
!	!	!	!LO:LB:g=original	!	!	!	!	!	!	!	!	!	!	!	!	!	!	!	!	!	!	!
8E\	.	8E/L	16r	.	2r	.	2r	.	2r	.	.	8.dd\L	.	.	2r	.	2r	.	2r	.	2r	.
.	.	.	16G#/LL	.	.	.	.	.	.	.	.	.	.	.	.	.	.	.	.	.	.	.
8r	.	8G#/	16d/	.	.	.	.	.	.	.	.	.	.	.	.	.	.	.	.	.	.	.
.	.	.	16B/JJ	.	.	.	.	.	.	.	.	32ff#\LL	.	.	.	.	.	.	.	.	.	.
.	.	.	.	.	.	.	.	.	.	.	.	32ee\JJJ	.	.	.	.	.	.	.	.	.	.
8e\	.	8E/	16r	.	.	.	.	.	.	.	.	16dd\LL	.	.	.	.	.	.	.	.	.	.
.	.	.	16G#/LL	.	.	.	.	.	.	.	.	16cc#\	mi-	.	.	.	.	.	.	.	.	.
8r	.	8G#/J	16d/	.	.	.	.	.	.	.	.	(32ee\L	-ne	.	.	.	.	.	.	.	.	.
.	.	.	.	.	.	.	.	.	.	.	.	32dd\	.	.	.	.	.	.	.	.	.	.
.	.	.	16B/JJ	.	.	.	.	.	.	.	.	32cc#\	.	.	.	.	.	.	.	.	.	.
.	.	.	.	.	.	.	.	.	.	.	.	32b\JJJ)	.	.	.	.	.	.	.	.	.	.
*	*	*Xtremolo	*	*	*	*	*	*	*	*	*	*	*	*	*	*	*	*	*	*	*	*
=24	=24	=24	=24	=24	=24	=24	=24	=24	=24	=24	=24	=24	=24	=24	=24	=24	=24	=24	=24	=24	=24	=24
!LO:LB:g=original	!	!	!	!	!	!	!	!	!	!	!	!LO:LB:g=original	!	!	!	!	!	!	!	!	!	!
8r	.	8A/L	16r	.	8r	.	8r	.	8r	.	.	(32dd\LLL	Do-	.	8r	.	8r	.	8r	.	8r	.
.	.	.	.	.	.	.	.	.	.	.	.	32cc#\	.	.	.	.	.	.	.	.	.	.
.	.	.	16c#/LL	.	.	.	.	.	.	.	.	32b\	.	.	.	.	.	.	.	.	.	.
.	.	.	.	.	.	.	.	.	.	.	.	32a\J)	-mi-	.	.	.	.	.	.	.	.	.
!LO:TX:t=P:problem=mixed beam	!	!	!	!	!	!	!	!	!	!	!	!	!	!	!	!	!	!	!	!	!	!
8A\L	.	8E/	16A/	.	16c#\	Do-	16e\LL	Do-	16a\	Do-	.	16a\JJ	-ni	.	8c#/L	.	8a\L	.	8cc#\L	.	8aa\L	.
!	!	!	!	!	!	!	!	!	!	!	!	!LO:N:vis=8	!	!	!	!	!	!	!	!	!	!
.	.	.	16c#/JJ	.	16A\	-mi-	16c#\JJ	-mi-	16a\	-mi-	.	8.r	.	.	.	.	.	.	.	.	.	.
8AA/J	.	8A/J	8A/	.	8A\	-ni	8c#\	-ni	8a\	-ni	.	.	.	.	8c#/J	.	8a\J	.	8cc#\J	.	8aa\J	.
8r	.	8r	8r	.	8r	.	8r	.	8r	.	.	8a\	qui	.	8r	.	8r	.	8r	.	8r	.
=25	=25	=25	=25	=25	=25	=25	=25	=25	=25	=25	=25	=25	=25	=25	=25	=25	=25	=25	=25	=25	=25	=25
8d\	.	8d\L	16r	.	2r	.	2r	.	2r	.	.	4ff#\	ve-	.	2r	.	2r	.	2r	.	2r	.
.	.	.	16d/LL	.	.	.	.	.	.	.	.	.	.	.	.	.	.	.	.	.	.	.
8r	.	8f#\	16f#/	.	.	.	.	.	.	.	.	.	.	.	.	.	.	.	.	.	.	.
.	.	.	16a/JJ	.	.	.	.	.	.	.	.	.	.	.	.	.	.	.	.	.	.	.
!	!	!	!LO:N:vis=4	!	!	!	!	!	!	!	!	!	!	!	!	!	!	!	!	!	!	!
4r	.	8d\J	8d/	.	.	.	.	.	.	.	.	(8dd\L	-nit	.	.	.	.	.	.	.	.	.
.	.	8r	8r	.	.	.	.	.	.	.	.	8a\J)	.	.	.	.	.	.	.	.	.	.
=26	=26	=26	=26	=26	=26	=26	=26	=26	=26	=26	=26	=26	=26	=26	=26	=26	=26	=26	=26	=26	=26	=26
8D\	.	8d\L	16r	.	2r	.	2r	.	2r	.	.	8a\L	in	.	2r	.	2r	.	2r	.	2r	.
.	.	.	16d/LL	.	.	.	.	.	.	.	.	.	.	.	.	.	.	.	.	.	.	.
8r	.	8f#\	16f#/	.	.	.	.	.	.	.	.	8dd\	no-	.	.	.	.	.	.	.	.	.
.	.	.	16a/JJ	.	.	.	.	.	.	.	.	.	.	.	.	.	.	.	.	.	.	.
4r	.	8e\	16r	.	.	.	.	.	.	.	.	8ee\	-mi-	.	.	.	.	.	.	.	.	.
.	.	.	16f#/LL	.	.	.	.	.	.	.	.	.	.	.	.	.	.	.	.	.	.	.
.	.	8d\J	16a/	.	.	.	.	.	.	.	.	8ff#\J	-ne	.	.	.	.	.	.	.	.	.
.	.	.	16f#/JJ	.	.	.	.	.	.	.	.	.	.	.	.	.	.	.	.	.	.	.
=27	=27	=27	=27	=27	=27	=27	=27	=27	=27	=27	=27	=27	=27	=27	=27	=27	=27	=27	=27	=27	=27	=27
8r	.	8c#\L	16r	.	8r	.	8r	.	8r	.	.	16ff#\LL	Do-	.	8r	.	8r	.	8r	.	8r	.
.	.	.	16A/LL	.	.	.	.	.	.	.	.	16dd#X\J	-mi-	.	.	.	.	.	.	.	.	.
!LO:TX:t=P:problem=mixed beam	!	!	!	!	!	!	!	!	!	!	!	!	!	!	!	!	!	!	!	!	!	!
.	.	.	.	.	.	.	.	.	.	.	.	8qqff#/	.	.	.	.	.	.	.	.	.	.
*	*	*	*	*	*	*ij	*	*ij	*	*ij	*	*	*	*	*	*	*	*	*	*	*	*
8AA/L	.	8A\J	16c#/	.	16A\	Do-	16c#\LL	Do-	16e\	Do-	.	8ee\J	-ni	.	8c#/L	.	8a\L	.	8cc#\L	.	8aa\L	.
.	.	.	16A/JJ	.	16A\	-mi-	16c#\JJ	-mi-	16e\	-mi-	.	.	.	.	.	.	.	.	.	.	.	.
8A\J	.	8a\	8c#/	.	8AA/	-ni	8c#\	-ni	8e\	-ni	.	16r	.	.	8c#/J	.	8a\J	.	8cc#\J	.	8aa\J	.
*	*	*	*	*	*	*Xij	*	*Xij	*	*Xij	*	*	*	*	*	*	*	*	*	*	*	*
.	.	.	.	.	.	.	.	.	.	.	.	(16a\LL	Be-	.	.	.	.	.	.	.	.	.
8r	.	8r	8r	.	8r	.	8r	.	8r	.	.	16cc#\	.	.	8r	.	8r	.	8r	.	8r	.
.	.	.	.	.	.	.	.	.	.	.	.	16ee\JJ)	.	.	.	.	.	.	.	.	.	.
=28	=28	=28	=28	=28	=28	=28	=28	=28	=28	=28	=28	=28	=28	=28	=28	=28	=28	=28	=28	=28	=28	=28
*	*	*	*tremolo	*	*	*	*	*	*	*	*	*	*	*	*	*	*	*	*	*	*	*
!	!	!LO:LB:g=original	!	!	!	!	!	!	!	!	!	!	!	!	!	!	!	!	!	!	!	!
!	!	!	!	!	!LO:LB:g=original	!	!	!	!	!	!	!	!	!	!	!	!	!	!	!	!	!
.	.	.	.	.	.	.	.	.	.	.	.	8qqee/	.	.	.	.	.	.	.	.	.	.
8BB/	.	8G#/L	8d/L	.	2r	.	2r	.	2r	.	.	8dd\L	-ne-	.	2r	.	2r	.	2r	.	2r	.
8r	.	8G#/	8d/	.	.	.	.	.	.	.	.	16cc#\L	-dic-	.	.	.	.	.	.	.	.	.
.	.	.	.	.	.	.	.	.	.	.	.	16b\JJ	-tus	.	.	.	.	.	.	.	.	.
8AA/	.	8A/	8d/	.	.	.	.	.	.	.	.	16cc#\LL	qui	.	.	.	.	.	.	.	.	.
.	.	.	.	.	.	.	.	.	.	.	.	16a\	.	.	.	.	.	.	.	.	.	.
8r	.	8A/J	8d/J	.	.	.	.	.	.	.	.	(32ff#\L	ve-	.	.	.	.	.	.	.	.	.
.	.	.	.	.	.	.	.	.	.	.	.	32ee\	.	.	.	.	.	.	.	.	.	.
.	.	.	.	.	.	.	.	.	.	.	.	32dd\	.	.	.	.	.	.	.	.	.	.
.	.	.	.	.	.	.	.	.	.	.	.	32cc#\JJJ)	.	.	.	.	.	.	.	.	.	.
*	*	*	*Xtremolo	*	*	*	*	*	*	*	*	*	*	*	*	*	*	*	*	*	*	*
=29	=29	=29	=29	=29	=29	=29	=29	=29	=29	=29	=29	=29	=29	=29	=29	=29	=29	=29	=29	=29	=29	=29
!	!	!	!	!	!	!	!	!	!LO:LB:g=original	!	!	!	!	!	!	!	!	!	!	!	!	!
16r	.	16r	8r	.	8r	.	8r	.	8r	.	.	4b\	-nit	.	2r	.	2r	.	8r	.	8r	.
!	!LO:DY:b:t=for	!	!	!	!	!	!	!	!	!	!	!	!	!	!	!	!	!	!	!	!	!
16E/LL	f	16e/LL	.	.	.	.	.	.	.	.	.	.	.	.	.	.	.	.	.	.	.	.
16BB/	.	16B/	8e/L	.	16E\	Be-	16B\	Be-	16g#\	Be-	.	.	.	.	.	.	.	.	8b/L	.	8gg#\L	.
16GG#/JJ	.	16G#/JJ	.	.	16E\	-ne-	16B\	-ne-	16g#\	-ne-	.	.	.	.	.	.	.	.	.	.	.	.
8EE/	.	8E/	8e/J	.	16e\LL	-dic-	16B\LL	-dic-	16g#\	-dic-	.	8r	.	.	.	.	.	.	8g#/J	.	8ee\J	.
.	.	.	.	.	16E\JJ	-tus	16e\JJ	-tus	16g#\	-tus	.	.	.	.	.	.	.	.	.	.	.	.
!	!	!	!	!	!	!	!	!	!	!	!	!LO:TX:a:i:t=Verte Cito	!	!	!	!	!	!	!	!	!	!
8r	.	8r	8r	.	8r	.	8r	.	8r	.	.	8b\	In	.	.	.	.	.	8r	.	8r	.
=30	=30	=30	=30	=30	=30	=30	=30	=30	=30	=30	=30	=30	=30	=30	=30	=30	=30	=30	=30	=30	=30	=30
*tremolo	*	*tremolo	*	*	*	*	*	*	*	*	*	*	*	*	*	*	*	*	*	*	*	*
!	!	!	!	!	!	!	!	!	!	!	!	!LO:PB:g=original	!	!	!	!	!	!	!	!	!	!
!	!LO:DY:b:t=p.	!	!	!	!	!	!	!	!	!	!	!	!	!	!	!	!	!	!	!	!	!
8E\L	p	16G#/LL	8e 8B/	.	2r	.	2r	.	2r	.	.	(8.b\L	no-	.	16r	.	16r	.	16r	.	16r	.
!	!	!	!	!	!	!	!	!	!	!	!	!	!	!	!	!	!	!	!	!LO:DY:b:t=po	!	!
!	!	!	!	!	!	!	!	!	!	!	!	!	!	!	!	!LO:DY:b:t=p.	!	!	!	!	!	!
.	.	16B/	.	.	.	.	.	.	.	.	.	.	.	.	16e/LL	p	16b'\LL	p	16ee\LL	p	16gg#\LL	.
8E\	.	16G#/	8r	.	.	.	.	.	.	.	.	.	.	.	16e/	.	16b'\	.	16ee\	.	16gg#\	.
.	.	16B/	.	.	.	.	.	.	.	.	.	32cc#\LL	.	.	16e/JJ	.	16b'\JJ	.	16ee\JJ	.	16gg#\JJ	.
*	*	*	*	*	*	*	*	*	*	*	*	*	*	*	*tremolo	*	*tremolo	*	*tremolo	*	*tremolo	*
.	.	.	.	.	.	.	.	.	.	.	.	32dd#X\JJJ)	.	.	.	.	.	.	.	.	.	.
!	!	!	!	!	!	!	!	!	!	!	!	!	!	!	!	!	!LO:TX:t=P:problem=u góry cztery kropki	!	!LO:TX:t=P:problem=u góry cztery kropki	!	!LO:TX:t=P:problem=u góry cztery kropki	!
8E\	.	16G#/	8e 8B/	.	.	.	.	.	.	.	.	16ee\LL	.	.	16e/LL	.	16b\LL	.	16ee\LL	.	16gg#\LL	.
.	.	16B/	.	.	.	.	.	.	.	.	.	16ff#\	.	.	16e/	.	16b\	.	16ee\	.	16gg#\	.
8E\J	.	16G#/	8r	.	.	.	.	.	.	.	.	16gg#\	.	.	16e/	.	16b\	.	16ee\	.	16gg#\	.
.	.	16B/JJ	.	.	.	.	.	.	.	.	.	16ee\JJ	.	.	16e/JJ	.	16b\JJ	.	16ee\JJ	.	16gg#\JJ	.
*Xtremolo	*	*	*	*	*	*	*	*	*	*	*	*	*	*	*Xtremolo	*	*Xtremolo	*	*Xtremolo	*	*Xtremolo	*
=31	=31	=31	=31	=31	=31	=31	=31	=31	=31	=31	=31	=31	=31	=31	=31	=31	=31	=31	=31	=31	=31	=31
!LO:TX:t=P:problem=mixed beam	!	!	!	!	!	!	!	!	!	!	!	!	!	!	!	!	!	!	!	!	!	!
!	!	!	!LO:LB:g=original	!	!	!	!	!	!	!	!	!	!	!	!	!	!	!	!	!	!	!
8BB/L	.	16F#/LL	8f# 8d#X/	.	8r	.	8r	.	8r	.	.	16dd#X\LL	-mi-	.	16r	.	16r	.	16r	.	16r	.
.	.	16A/	.	.	.	.	.	.	.	.	.	16ff#\J	.	.	16a\LL	.	16b\LL	.	16ff#\LL	.	16aa\LL	.
8B\J	.	16F#/	8r	.	16B\	Do-	16d#X\	Do-	16a\	Do-	.	8a\J	-ne	.	16a\	.	16b\	.	16ff#\	.	16aa\	.
.	.	16A/	.	.	16B\	-mi-	16d#\	-mi-	16a\	-mi-	.	.	.	.	16a\JJ	.	16b\JJ	.	16ff#\JJ	.	16aa\JJ	.
*	*	*	*	*	*	*	*	*	*	*	*	*	*	*	*tremolo	*	*tremolo	*	*tremolo	*	*tremolo	*
!	!	!	!	!	!	!	!	!	!	!	!	!	!	!	!	!	!	!	!LO:TX:t=P:problem=u góry cztery kropki	!	!	!
8BB/L	.	16F#/	8f# 8d#/	.	8BB/	-ni	8d#\	-ni	8a\	-ni	.	8r	.	.	16a\LL	.	16b\LL	.	16ff#\LL	.	16aa\LL	.
.	.	16A/	.	.	.	.	.	.	.	.	.	.	.	.	16a\	.	16b\	.	16ff#\	.	16aa\	.
8BB/J	.	16F#/	8r	.	8r	.	8r	.	8r	.	.	8b\	In	.	16a\	.	16b\	.	16ff#\	.	16aa\	.
.	.	16A/JJ	.	.	.	.	.	.	.	.	.	.	.	.	16a\JJ	.	16b\JJ	.	16ff#\JJ	.	16aa\JJ	.
*	*	*	*	*	*	*	*	*	*	*	*	*	*	*	*Xtremolo	*	*Xtremolo	*	*Xtremolo	*	*Xtremolo	*
=32	=32	=32	=32	=32	=32	=32	=32	=32	=32	=32	=32	=32	=32	=32	=32	=32	=32	=32	=32	=32	=32	=32
*tremolo	*	*	*	*	*	*	*	*	*	*	*	*	*	*	*	*	*	*	*	*	*	*
8E\L	.	16G#/LL	8e/	.	2r	.	2r	.	2r	.	.	8.b\L	no-	.	16r	.	16r	.	16r	.	16r	.
.	.	16B/	.	.	.	.	.	.	.	.	.	.	.	.	16e/LL	.	16b\LL	.	16ee\LL	.	16gg#\LL	.
8E\	.	16G#/	8r	.	.	.	.	.	.	.	.	.	.	.	16e/	.	16b\	.	16ee\	.	16gg#\	.
.	.	16B/	.	.	.	.	.	.	.	.	.	32cc#\LL	.	.	16e/JJ	.	16b\JJ	.	16ee\JJ	.	16gg#\JJ	.
*	*	*	*	*	*	*	*	*	*	*	*	*	*	*	*tremolo	*	*tremolo	*	*tremolo	*	*tremolo	*
.	.	.	.	.	.	.	.	.	.	.	.	32dd#X\JJJ	.	.	.	.	.	.	.	.	.	.
!	!	!	!	!	!	!	!	!	!	!	!	!	!	!	!	!	!	!	!LO:TX:t=P:problem=u góry cztery kropki	!	!LO:TX:t=P:problem=u góry cztery kropki	!
8E\	.	16G#/	8e/	.	.	.	.	.	.	.	.	16ee\LL	-mi-	.	16e/LL	.	16b\LL	.	16ee\LL	.	16gg#\LL	.
.	.	16B/	.	.	.	.	.	.	.	.	.	16ff#\	.	.	16e/	.	16b\	.	16ee\	.	16gg#\	.
8E\J	.	16G#/	8r	.	.	.	.	.	.	.	.	16gg#\	-ne	.	16e/	.	16b\	.	16ee\	.	16gg#\	.
.	.	16B/JJ	.	.	.	.	.	.	.	.	.	16ee\JJ	.	.	16e/JJ	.	16b\JJ	.	16ee\JJ	.	16gg#\JJ	.
*	*	*	*	*	*	*	*	*	*	*	*	*	*	*	*Xtremolo	*	*Xtremolo	*	*Xtremolo	*	*Xtremolo	*
=33	=33	=33	=33	=33	=33	=33	=33	=33	=33	=33	=33	=33	=33	=33	=33	=33	=33	=33	=33	=33	=33	=33
8BB/L	.	16F#/LL	8f# 8d#X/	.	8r	.	8r	.	8r	.	.	16dd#X\LL	Do-	.	16r	.	16r	.	16r	.	16r	.
.	.	16A/	.	.	.	.	.	.	.	.	.	16ff#\J	-mi-	.	16a\LL	.	16b\LL	.	16ff#\LL	.	16aa\LL	.
*	*	*	*	*	*	*ij	*	*ij	*	*ij	*	*	*	*	*	*	*	*	*	*	*	*
8BB/	.	16F#/	8r	.	16B\	Do-	16d#X\LL	Do-	16a\	Do-	.	8aa\J	-ni	.	16a\	.	16b\	.	16ff#\	.	16aa\	.
.	.	16A/	.	.	16B\	-mi-	16f#\JJ	-mi-	16a\	-mi-	.	.	.	.	16a\JJ	.	16b\JJ	.	16ff#\JJ	.	16aa\JJ	.
*	*	*	*	*	*	*	*	*	*	*	*	*	*	*	*tremolo	*	*tremolo	*	*tremolo	*	*tremolo	*
!	!	!	!	!	!	!	!	!	!	!	!	!	!	!	!	!	!	!	!LO:TX:t=P:problem=u góry cztery kropki	!	!LO:TX:t=P:problem=u góry cztery kropki	!
8BB/	.	16F#/	8f# 8d#/	.	8BB/	-ni	8a\	-ni	8f#\	-ni	.	8r	.	.	16a\LL	.	16b\LL	.	16ff#\LL	.	16aa\LL	.
*	*	*	*	*	*	*Xij	*	*Xij	*	*Xij	*	*	*	*	*	*	*	*	*	*	*	*
.	.	16A/	.	.	.	.	.	.	.	.	.	.	.	.	16a\	.	16b\	.	16ff#\	.	16aa\	.
8BB/J	.	16F#/	8r	.	8r	.	8r	.	8r	.	.	8b\	In	.	16a\	.	16b\	.	16ff#\	.	16aa\	.
.	.	16A/JJ	.	.	.	.	.	.	.	.	.	.	.	.	16a\JJ	.	16b\JJ	.	16ff#\JJ	.	16aa\JJ	.
*Xtremolo	*	*Xtremolo	*	*	*	*	*	*	*	*	*	*	*	*	*Xtremolo	*	*Xtremolo	*	*Xtremolo	*	*Xtremolo	*
=34	=34	=34	=34	=34	=34	=34	=34	=34	=34	=34	=34	=34	=34	=34	=34	=34	=34	=34	=34	=34	=34	=34
!LO:TX:t=P:problem=mixed beam	!	!	!LO:TX:a:i:t=2	!	!	!	!	!	!	!	!	!	!	!	!LO:TX:a:i:t=13	!	!	!	!	!	!	!
!	!	!	!	!	!	!	!	!	!	!	!	!	!	!	!	!	!	!	!LO:LB:g=original	!	!	!
!	!	!	!	!	!	!	!	!	!	!	!	!	!	!	!	!	!LO:LB:g=original	!	!	!	!	!
!	!	!	!	!	!	!	!LO:LB:g=original	!	!	!	!	!	!	!	!	!	!	!	!	!	!	!
8B\L	.	16f#'\LL	2r	.	2r	.	16f#\LL	In	2r	.	.	16aa\LL	no-	.	2r	.	2r	.	8ff#\	.	8aa\	.
.	.	16e'\	.	.	.	.	16e\	.	.	.	.	16gg#\	.	.	.	.	.	.	.	.	.	.
8BB/J	.	16d#X'\	.	.	.	.	16d#X\	.	.	.	.	16ff#\	.	.	.	.	.	.	8r	.	8r	.
.	.	16c#'\JJ	.	.	.	.	16c#\JJ	.	.	.	.	16ee\JJ	.	.	.	.	.	.	.	.	.	.
*tremolo	*	*	*	*	*	*	*	*	*	*	*	*	*	*	*	*	*	*	*	*	*	*
!LO:TX:t=P:problem=błędne wyświetlanie	!	!	!	!	!	!	!	!	!	!	!	!	!	!	!	!	!	!	!	!	!	!
!LO:N:vis=2	!	!	!	!	!	!	!	!	!	!	!	!	!	!	!	!	!	!	!	!	!	!
8BB/L	.	16B'/LL	.	.	.	.	16B/LL	no-	.	.	.	16dd#X\LL	.	.	.	.	.	.	4r	.	4r	.
.	.	16A'/	.	.	.	.	16A/	.	.	.	.	16cc#\	.	.	.	.	.	.	.	.	.	.
8BB/J	.	16G#'/	.	.	.	.	16G#/	-mi-	.	.	.	16b\	-mi-	.	.	.	.	.	.	.	.	.
.	.	16F#'/JJ	.	.	.	.	16F#/JJ	.	.	.	.	16a\JJ	.	.	.	.	.	.	.	.	.	.
=35	=35	=35	=35	=35	=35	=35	=35	=35	=35	=35	=35	=35	=35	=35	=35	=35	=35	=35	=35	=35	=35	=35
!LO:TX:t=P:problem=błędne wyświetlanie	!	!	!	!	!	!	!	!	!	!	!	!	!	!	!	!	!	!	!	!	!	!
!LO:N:vis=2.	!	!	!	!	!	!	!	!	!	!	!	!	!	!	!	!	!	!	!	!	!	!
8E\L	.	16E'/LL	2r	.	2r	.	16E/	-ne	2r	.	.	16g#\	-ne	.	2r	.	2r	.	2r	.	2r	.
.	.	16E'/	.	.	.	.	16E/LL	Do-	.	.	.	16g#\LL	In	.	.	.	.	.	.	.	.	.
8E\	.	16F#'/	.	.	.	.	16F#/	.	.	.	.	16a\	.	.	.	.	.	.	.	.	.	.
.	.	16G#'/JJ	.	.	.	.	16G#/JJ	.	.	.	.	16b\JJ	.	.	.	.	.	.	.	.	.	.
8E\	.	16A'/LL	.	.	.	.	16A/LL	.	.	.	.	16cc#\LL	no-	.	.	.	.	.	.	.	.	.
.	.	16B'/	.	.	.	.	16F#/	.	.	.	.	16dd#X\	.	.	.	.	.	.	.	.	.	.
8E\J	.	16c#'/	.	.	.	.	16G#/	-mi-	.	.	.	16ee\	.	.	.	.	.	.	.	.	.	.
.	.	16d#X'/JJ	.	.	.	.	16A/JJ	.	.	.	.	16ff#\JJ	.	.	.	.	.	.	.	.	.	.
*Xtremolo	*	*	*	*	*	*	*	*	*	*	*	*	*	*	*	*	*	*	*	*	*	*
=36	=36	=36	=36	=36	=36	=36	=36	=36	=36	=36	=36	=36	=36	=36	=36	=36	=36	=36	=36	=36	=36	=36
!LO:TX:t=P:problem=mixed beam	!	!	!	!	!	!	!	!	!	!	!	!	!	!	!	!	!	!	!	!	!	!
!LO:LB:g=original	!	!	!	!	!	!	!	!	!	!	!	!LO:LB:g=original	!	!	!	!	!	!	!	!	!	!
.	.	.	.	.	.	.	.	.	.	.	.	8qqaa/	.	.	.	.	.	.	.	.	.	.
8E\L	.	8e\	16r	.	2r	.	8B\	-ni	2r	.	.	8gg#\L	-mi-	.	2r	.	2r	.	2r	.	2r	.
.	.	.	16e/LL	.	.	.	.	.	.	.	.	.	.	.	.	.	.	.	.	.	.	.
8e\	.	8r	16e/	.	.	.	8r	.	.	.	.	16ff#\L	-ne	.	.	.	.	.	.	.	.	.
.	.	.	16e/JJ	.	.	.	.	.	.	.	.	16ee\JJ	.	.	.	.	.	.	.	.	.	.
*	*	*tremolo	*tremolo	*	*	*	*	*	*	*	*	*	*	*	*	*	*	*	*	*	*	*
8B\	.	16B/LL	16d#X/LL	.	.	.	8.AT\L	Do-	.	.	.	8.ff#T\L	Do-	.	.	.	.	.	.	.	.	.
.	.	16B/	16d#/	.	.	.	.	.	.	.	.	.	.	.	.	.	.	.	.	.	.	.
8BB/J	.	16B/	16d#/	.	.	.	.	.	.	.	.	.	.	.	.	.	.	.	.	.	.	.
.	.	16B/JJ	16d#/JJ	.	.	.	16G#\Jk	-mi-	.	.	.	16ee\Jk	-mi-	.	.	.	.	.	.	.	.	.
*	*	*Xtremolo	*Xtremolo	*	*	*	*	*	*	*	*	*	*	*	*	*	*	*	*	*	*	*
=37	=37	=37	=37	=37	=37	=37	=37	=37	=37	=37	=37	=37	=37	=37	=37	=37	=37	=37	=37	=37	=37	=37
4E\	.	8E/	16r	.	2r	.	8G#/	-ni	2r	.	.	8ee\	-ni	.	2r	.	2r	.	2r	.	2r	.
.	.	.	(16e/LL	.	.	.	.	.	.	.	.	.	.	.	.	.	.	.	.	.	.	.
.	.	8r	16g#/	.	.	.	8r	.	.	.	.	8r	.	.	.	.	.	.	.	.	.	.
.	.	.	16f#/JJ)	.	.	.	.	.	.	.	.	.	.	.	.	.	.	.	.	.	.	.
4r	.	8e\	8e/	.	.	.	4r	.	.	.	.	4r	.	.	.	.	.	.	.	.	.	.
.	.	8r	8r	.	.	.	.	.	.	.	.	.	.	.	.	.	.	.	.	.	.	.
=38	=38	=38	=38	=38	=38	=38	=38	=38	=38	=38	=38	=38	=38	=38	=38	=38	=38	=38	=38	=38	=38	=38
!	!	!LO:LB:g=original	!	!	!	!	!	!	!	!	!	!	!	!	!	!	!	!	!	!	!	!
8r	.	8f#\	16r	.	2r	.	2r	.	2r	.	.	2r	.	.	2r	.	2r	.	2r	.	2r	.
.	.	.	16d#X/LL	.	.	.	.	.	.	.	.	.	.	.	.	.	.	.	.	.	.	.
8D#X\L	.	8r	16f#/	.	.	.	.	.	.	.	.	.	.	.	.	.	.	.	.	.	.	.
.	.	.	16e/JJ	.	.	.	.	.	.	.	.	.	.	.	.	.	.	.	.	.	.	.
8D#\	.	8d#X\	8d#/	.	.	.	.	.	.	.	.	.	.	.	.	.	.	.	.	.	.	.
8D#\J	.	8r	8r	.	.	.	.	.	.	.	.	.	.	.	.	.	.	.	.	.	.	.
=39	=39	=39	=39	=39	=39	=39	=39	=39	=39	=39	=39	=39	=39	=39	=39	=39	=39	=39	=39	=39	=39	=39
8r	.	8e\	16r	.	2r	.	2r	.	2r	.	.	2r	.	.	2r	.	2r	.	2r	.	2r	.
.	.	.	16e/LL	.	.	.	.	.	.	.	.	.	.	.	.	.	.	.	.	.	.	.
8E\L	.	8r	16g#/	.	.	.	.	.	.	.	.	.	.	.	.	.	.	.	.	.	.	.
.	.	.	16f#/JJ	.	.	.	.	.	.	.	.	.	.	.	.	.	.	.	.	.	.	.
8E\J	.	8E/	8e/	.	.	.	.	.	.	.	.	.	.	.	.	.	.	.	.	.	.	.
8r	.	8r	8r	.	.	.	.	.	.	.	.	.	.	.	.	.	.	.	.	.	.	.
=40	=40	=40	=40	=40	=40	=40	=40	=40	=40	=40	=40	=40	=40	=40	=40	=40	=40	=40	=40	=40	=40	=40
8r	.	8F#/	16r	.	2r	.	2r	.	2r	.	.	2r	.	.	2r	.	2r	.	2r	.	2r	.
.	.	.	16d#X/LL	.	.	.	.	.	.	.	.	.	.	.	.	.	.	.	.	.	.	.
8D#X\L	.	8r	16f#/	.	.	.	.	.	.	.	.	.	.	.	.	.	.	.	.	.	.	.
.	.	.	16e/JJ	.	.	.	.	.	.	.	.	.	.	.	.	.	.	.	.	.	.	.
8D#\	.	8d#X\	8d#/	.	.	.	.	.	.	.	.	.	.	.	.	.	.	.	.	.	.	.
8D#\J	.	8r	8r	.	.	.	.	.	.	.	.	.	.	.	.	.	.	.	.	.	.	.
=41	=41	=41	=41	=41	=41	=41	=41	=41	=41	=41	=41	=41	=41	=41	=41	=41	=41	=41	=41	=41	=41	=41
!	!	!	!LO:LB:g=original	!	!	!	!	!	!	!	!	!	!	!	!	!	!	!	!	!	!	!
8E\	.	8e\	8eL 8B/	.	2r	.	2r	.	2r	.	.	2r	.	.	2r	.	2r	.	2r	.	2r	.
8r	.	8r	8e 8B/	.	.	.	.	.	.	.	.	.	.	.	.	.	.	.	.	.	.	.
8G#\	.	8E/	8eJ 8B/	.	.	.	.	.	.	.	.	.	.	.	.	.	.	.	.	.	.	.
8r	.	8r	8r	.	.	.	.	.	.	.	.	.	.	.	.	.	.	.	.	.	.	.
=42	=42	=42	=42	=42	=42	=42	=42	=42	=42	=42	=42	=42	=42	=42	=42	=42	=42	=42	=42	=42	=42	=42
*tremolo	*	*	*	*	*	*	*	*	*	*	*	*	*	*	*	*	*	*	*	*	*	*
!LO:TX:t=P:problem=mixed beam	!	!	!	!	!	!	!	!	!	!	!	!	!	!	!	!	!	!	!	!	!	!
8AA/L	.	16r	16r	.	2r	.	2r	.	2r	.	.	2r	.	.	2r	.	2r	.	2r	.	2r	.
.	.	16F#/LL	16A/LL	.	.	.	.	.	.	.	.	.	.	.	.	.	.	.	.	.	.	.
8F#\	.	16F#/	16A/	.	.	.	.	.	.	.	.	.	.	.	.	.	.	.	.	.	.	.
.	.	16F#/JJ	16A/JJ	.	.	.	.	.	.	.	.	.	.	.	.	.	.	.	.	.	.	.
8AA/	.	8F#/	8A/	.	.	.	.	.	.	.	.	.	.	.	.	.	.	.	.	.	.	.
8F#\J	.	8r	8r	.	.	.	.	.	.	.	.	.	.	.	.	.	.	.	.	.	.	.
=43	=43	=43	=43	=43	=43	=43	=43	=43	=43	=43	=43	=43	=43	=43	=43	=43	=43	=43	=43	=43	=43	=43
!LO:TX:t=P:problem=mixed beam	!	!	!	!	!	!	!	!	!	!	!	!	!	!	!	!	!	!	!	!	!	!
8BB/L	.	16r	16r	.	2r	.	2r	.	2r	.	.	2r	.	.	2r	.	2r	.	2r	.	2r	.
.	.	16B/LL	16d#X/LL	.	.	.	.	.	.	.	.	.	.	.	.	.	.	.	.	.	.	.
8A\	.	16B/	16d#/	.	.	.	.	.	.	.	.	.	.	.	.	.	.	.	.	.	.	.
.	.	16B/JJ	16d#/JJ	.	.	.	.	.	.	.	.	.	.	.	.	.	.	.	.	.	.	.
8BB/	.	8B/	8d#/	.	.	.	.	.	.	.	.	.	.	.	.	.	.	.	.	.	.	.
8A\J	.	8r	8r	.	.	.	.	.	.	.	.	.	.	.	.	.	.	.	.	.	.	.
*Xtremolo	*	*	*	*	*	*	*	*	*	*	*	*	*	*	*	*	*	*	*	*	*	*
=44	=44	=44	=44	=44	=44	=44	=44	=44	=44	=44	=44	=44	=44	=44	=44	=44	=44	=44	=44	=44	=44	=44
!LO:TX:t=P:problem=mixed beam	!	!	!	!	!	!	!	!	!	!	!	!	!	!	!	!	!	!	!	!	!	!
8E\L	.	8B/L	8e/L	.	2r	.	2r	.	2r	.	.	2r	.	.	2r	.	2r	.	2r	.	2r	.
8A\	.	8c#/J	8f#/	.	.	.	.	.	.	.	.	.	.	.	.	.	.	.	.	.	.	.
8B\	.	8G#/L	8B/	.	.	.	.	.	.	.	.	.	.	.	.	.	.	.	.	.	.	.
8BB/J	.	8A/J	8B/J	.	.	.	.	.	.	.	.	.	.	.	.	.	.	.	.	.	.	.
=45	=45	=45	=45	=45	=45	=45	=45	=45	=45	=45	=45	=45	=45	=45	=45	=45	=45	=45	=45	=45	=45	=45
8E\	.	8B 8E/	8G#/	.	2r	.	2r	.	2r	.	.	4r	.	.	2r	.	2r	.	2r	.	2r	.
8r	.	8r	8r	.	.	.	.	.	.	.	.	.	.	.	.	.	.	.	.	.	.	.
4r	.	4r	4r	.	.	.	.	.	.	.	.	8r	.	.	.	.	.	.	.	.	.	.
.	.	.	.	.	.	.	.	.	.	.	.	16.b\LL	Be-	.	.	.	.	.	.	.	.	.
.	.	.	.	.	.	.	.	.	.	.	.	32b\JJk	-ne-	.	.	.	.	.	.	.	.	.
=46	=46	=46	=46	=46	=46	=46	=46	=46	=46	=46	=46	=46	=46	=46	=46	=46	=46	=46	=46	=46	=46	=46
*tremolo	*	*tremolo	*	*	*	*	*	*	*	*	*	*	*	*	*	*	*	*	*	*	*	*
!LO:TX:t=P:problem=mixed beam	!	!	!	!	!	!	!	!	!	!	!	!	!	!	!	!	!	!	!	!	!	!
!	!LO:DY:b:t=pp.	!	!	!	!	!	!	!	!	!	!	!	!	!	!	!	!	!	!	!	!	!
8G#\L	pp	16E/LL	16g#\	.	2r	.	2r	.	2r	.	.	16b/LL	-dic-	.	2r	.	2r	.	2r	.	2r	.
.	.	16G#/	16r	.	.	.	.	.	.	.	.	16g#X/	.	.	.	.	.	.	.	.	.	.
8BB/	.	16E/	16b\	.	.	.	.	.	.	.	.	16f#/	-tus	.	.	.	.	.	.	.	.	.
.	.	16G#/	16r	.	.	.	.	.	.	.	.	16e/JJ	.	.	.	.	.	.	.	.	.	.
8G#\	.	16E/	16ee\	.	.	.	.	.	.	.	.	16e/	qui	.	.	.	.	.	.	.	.	.
.	.	16G#/	16r	.	.	.	.	.	.	.	.	16e/LL	ve-	.	.	.	.	.	.	.	.	.
8BB/J	.	16E/	16gg#\	.	.	.	.	.	.	.	.	16f#/	.	.	.	.	.	.	.	.	.	.
.	.	16G#/JJ	16r	.	.	.	.	.	.	.	.	16g#/JJ	.	.	.	.	.	.	.	.	.	.
=47	=47	=47	=47	=47	=47	=47	=47	=47	=47	=47	=47	=47	=47	=47	=47	=47	=47	=47	=47	=47	=47	=47
!LO:TX:t=P:problem=mixed beam	!	!	!	!	!	!	!	!	!	!	!	!	!	!	!	!	!	!	!	!	!	!
!LO:PB:g=original	!	!	!	!	!	!	!	!	!	!	!	!	!	!	!	!	!	!	!	!	!LO:LB:g=original	!
!	!	!	!	!	!	!	!	!	!	!	!	!	!	!	!LO:LB:g=original	!	!	!	!	!	!	!
!	!	!LO:LB:g=original	!	!	!	!	!	!	!	!	!	!	!	!	!	!	!	!	!	!	!	!
8A\L	.	16D#X/LL	16r	.	8r	.	8r	.	8r	.	.	(16b\LL	.	.	8r	.	8r	.	8r	.	8r	.
.	.	16F#/	16f#/LL	.	.	.	.	.	.	.	.	16a#X\J)	.	.	.	.	.	.	.	.	.	.
8BB/	.	16D#/	16f#/JJ	.	8A\	ve-	8d#X\	ve-	8f#\	ve-	.	8an\J	-nit	.	16a\LL	.	16b\LL	.	16dd#X\LL	.	16aa\LL	.
.	.	16F#/	16r	.	.	.	.	.	.	.	.	.	.	.	16a\JJ	.	16b\JJ	.	16dd#\JJ	.	16aa\JJ	.
8A\	.	16D#/	8f#/	.	8A\	-nit	8d#\	-nit	8f#\	-nit	.	8r	.	.	8a\	.	8b\	.	8dd#\	.	8aa\	.
.	.	16F#/	.	.	.	.	.	.	.	.	.	.	.	.	.	.	.	.	.	.	.	.
*	*	*	*	*	*	*	*	*	*	*	*	*	*ij	*	*	*	*	*	*	*	*	*
8BB/J	.	16D#/	8r	.	8r	.	8r	.	8r	.	.	16.a\LL	Be-	.	8r	.	8r	.	8r	.	8r	.
.	.	16F#/JJ	.	.	.	.	.	.	.	.	.	.	.	.	.	.	.	.	.	.	.	.
.	.	.	.	.	.	.	.	.	.	.	.	32a\JJk	-ne-	.	.	.	.	.	.	.	.	.
=48	=48	=48	=48	=48	=48	=48	=48	=48	=48	=48	=48	=48	=48	=48	=48	=48	=48	=48	=48	=48	=48	=48
!LO:TX:t=P:problem=mixed beam	!	!	!	!	!	!	!	!	!	!	!	!	!	!	!	!	!	!	!	!	!	!
!	!	!	!LO:LB:g=original	!	!	!	!	!	!	!	!	!	!	!	!	!	!	!	!	!	!	!
!	!	!LO:SIC:v:s=16D#/LL	!	!	!	!	!	!	!	!	!	!	!	!	!	!	!	!	!	!	!	!
8A\L	.	16D/LL	16B/	.	2r	.	2r	.	2r	.	.	16a/LL	-dic-	.	2r	.	2r	.	2r	.	2r	.
.	.	16F#/	16r	.	.	.	.	.	.	.	.	16f#/	.	.	.	.	.	.	.	.	.	.
!	!	!LO:SIC:v:s=16D#/	!	!	!	!	!	!	!	!	!	!	!	!	!	!	!	!	!	!	!	!
8BB/	.	16D/	16d#X/	.	.	.	.	.	.	.	.	16e/	tus	.	.	.	.	.	.	.	.	.
.	.	16F#/	16r	.	.	.	.	.	.	.	.	16d#X/JJ	qui	.	.	.	.	.	.	.	.	.
!	!	!LO:SIC:v:s=16D#/	!	!	!	!	!	!	!	!	!	!	!	!	!	!	!	!	!	!	!	!
8A\	.	16D/	16f#/	.	.	.	.	.	.	.	.	(32ff#\LLL	ve-	.	.	.	.	.	.	.	.	.
.	.	.	.	.	.	.	.	.	.	.	.	32ee\	.	.	.	.	.	.	.	.	.	.
.	.	16F#/	16r	.	.	.	.	.	.	.	.	32dd#X\	.	.	.	.	.	.	.	.	.	.
.	.	.	.	.	.	.	.	.	.	.	.	32cc#\JJJ	.	.	.	.	.	.	.	.	.	.
!	!	!LO:SIC:v:s=16D#/	!	!	!	!	!	!	!	!	!	!	!	!	!	!	!	!	!	!	!	!
8BB/J	.	16D/	16a/	.	.	.	.	.	.	.	.	32b\LLL	.	.	.	.	.	.	.	.	.	.
.	.	.	.	.	.	.	.	.	.	.	.	32a\	.	.	.	.	.	.	.	.	.	.
.	.	16F#/JJ	16r	.	.	.	.	.	.	.	.	32g#\	.	.	.	.	.	.	.	.	.	.
.	.	.	.	.	.	.	.	.	.	.	.	32a\JJJ)	.	.	.	.	.	.	.	.	.	.
*Xtremolo	*	*	*	*	*	*	*	*	*	*	*	*	*	*	*	*	*	*	*	*	*	*
=49	=49	=49	=49	=49	=49	=49	=49	=49	=49	=49	=49	=49	=49	=49	=49	=49	=49	=49	=49	=49	=49	=49
!	!	!	!	!	!	!	!	!	!	!	!	!LO:LB:g=original	!	!	!	!	!	!	!	!	!	!
8E/L	.	16E/LL	8r	.	8r	.	8r	.	8r	.	.	(32a/LLL	.	.	8r	.	8r	.	8r	.	8r	.
.	.	.	.	.	.	.	.	.	.	.	.	32g#/	.	.	.	.	.	.	.	.	.	.
.	.	16G#/	.	.	.	.	.	.	.	.	.	32b/	.	.	.	.	.	.	.	.	.	.
.	.	.	.	.	.	.	.	.	.	.	.	32a/JJ)	.	.	.	.	.	.	.	.	.	.
*	*	*	*	*	*	*ij	*	*ij	*	*ij	*	*	*	*	*	*	*	*	*	*	*	*
8BB/J	.	16E/	16g#LL 16B/	.	8E\	ve-	8g#\	ve-	8b\	ve-	.	8g#/J	-nit	.	16g#\LL	.	16b\LL	.	16ee\LL	.	16gg#\LL	.
*	*	*	*	*	*	*	*	*	*	*	*	*	*Xij	*	*	*	*	*	*	*	*	*
.	.	16G#/	16g#JJ 16B/	.	.	.	.	.	.	.	.	.	.	.	16g#\JJ	.	16b\JJ	.	16ee\JJ	.	16gg#\JJ	.
8E\	.	16E/	8g# 8B/	.	8E\	-nit	8g#\	-nit	8b\	-nit	.	8r	.	.	8g#\	.	8b\	.	8ee\	.	8gg#\	.
*	*	*	*	*	*	*Xij	*	*Xij	*	*Xij	*	*	*	*	*	*	*	*	*	*	*	*
.	.	16G#/	.	.	.	.	.	.	.	.	.	.	.	.	.	.	.	.	.	.	.	.
8r	.	16E/	8r	.	8r	.	8r	.	8r	.	.	8b\	In	.	8r	.	8r	.	8r	.	8r	.
.	.	16G#/JJ	.	.	.	.	.	.	.	.	.	.	.	.	.	.	.	.	.	.	.	.
*	*	*Xtremolo	*	*	*	*	*	*	*	*	*	*	*	*	*	*	*	*	*	*	*	*
=50	=50	=50	=50	=50	=50	=50	=50	=50	=50	=50	=50	=50	=50	=50	=50	=50	=50	=50	=50	=50	=50	=50
!	!	!	!	!	!LO:LB:g=original	!	!	!	!	!	!	!	!	!	!	!	!	!	!	!	!	!
16r	.	16E/LL	8r	.	16r	.	16r	.	16r	.	.	(16b\LL	no-	.	2r	.	2r	.	2r	.	2r	.
16E'\LL	.	16G#/	.	.	16E\LL	In	16G#/	In	16b\	In	.	16ee\JJ)	.	.	.	.	.	.	.	.	.	.
16G#'\	.	16B/	8B/L	.	16B\	no-	16G#/	no-	16b\	no-	.	4ee\	-mi-	.	.	.	.	.	.	.	.	.
16B'\JJ	.	16d/JJ	.	.	16G#\JJ	-mi-	16G#/	-mi-	16b\	-mi-	.	.	.	.	.	.	.	.	.	.	.	.
!	!	!	!	!	!	!	!	!	!LO:LB:g=original	!	!	!	!	!	!	!	!	!	!	!	!	!
8e\	.	8g#\	8B/	.	8E\	-ne	8G#/	-ne	8b\	-ne	.	.	.	.	.	.	.	.	.	.	.	.
8r	.	8r	8B/J	.	8r	.	8r	.	8r	.	.	8g#\	-ne	.	.	.	.	.	.	.	.	.
=51	=51	=51	=51	=51	=51	=51	=51	=51	=51	=51	=51	=51	=51	=51	=51	=51	=51	=51	=51	=51	=51	=51
!	!	!	!	!	!	!	!LO:LB:g=original	!	!	!	!	!	!	!	!	!	!	!	!	!	!	!
16r	.	16A\LL	8r	.	16r	.	16r	.	16r	.	.	16g#/LL	Do-	.	2r	.	2r	.	2r	.	2r	.
*	*	*	*	*	*	*ij	*	*ij	*	*ij	*	*	*	*	*	*	*	*	*	*	*	*
16AA/LL	.	16c#\	.	.	16AA/LL	In	16c#\	In	16a\	In	.	16f#/J	.	.	.	.	.	.	.	.	.	.
16C#/	.	16f#\	8c#X/L	.	16C#/	no-	16c#\	no-	16a\	no-	.	8.f#/J	-mi-	.	.	.	.	.	.	.	.	.
16F#/JJ	.	16a\JJ	.	.	16F#/JJ	-mi-	16c#\	-mi-	16a\	-mi-	.	.	.	.	.	.	.	.	.	.	.	.
8A\	.	8c#\	8c#/	.	8F#\	-ne	8c#\	-ne	8a\	-ne	.	.	.	.	.	.	.	.	.	.	.	.
.	.	.	.	.	.	.	.	.	.	.	.	16f#/LL	-ni	.	.	.	.	.	.	.	.	.
8r	.	8r	8c#/J	.	8r	.	8r	.	8r	.	.	(16a/	In	.	.	.	.	.	.	.	.	.
.	.	.	.	.	.	.	.	.	.	.	.	16cc#/JJ)	.	.	.	.	.	.	.	.	.	.
=52	=52	=52	=52	=52	=52	=52	=52	=52	=52	=52	=52	=52	=52	=52	=52	=52	=52	=52	=52	=52	=52	=52
8G#\L	.	8E/L	8r	.	16r	.	16r	.	16r	.	.	16cc#\LL	no-	.	2r	.	2r	.	2r	.	2r	.
.	.	.	.	.	16B\LL	In	16e\	In	16g#\	In	.	16b\J	.	.	.	.	.	.	.	.	.	.
8E\	.	8B/J	8G#/L	.	16B\	no-	16e\	no-	16g#\	no-	.	8.g#\J	.	.	.	.	.	.	.	.	.	.
.	.	.	.	.	16E\JJ	-mi-	16e\	-mi-	16g#\	-mi-	.	.	.	.	.	.	.	.	.	.	.	.
8D#X\	.	8F#/L	8A/	.	8F#\	-ne	8d#X\	-ne	8a\	-ne	.	.	.	.	.	.	.	.	.	.	.	.
*	*	*	*	*	*	*Xij	*	*Xij	*	*Xij	*	*	*	*	*	*	*	*	*	*	*	*
.	.	.	.	.	.	.	.	.	.	.	.	16f#\LL	-mi-	.	.	.	.	.	.	.	.	.
8BB\J	.	8F#/J	8A/J	.	8r	.	8r	.	8r	.	.	16b\	-ne	.	.	.	.	.	.	.	.	.
.	.	.	.	.	.	.	.	.	.	.	.	16a\JJ	.	.	.	.	.	.	.	.	.	.
=53	=53	=53	=53	=53	=53	=53	=53	=53	=53	=53	=53	=53	=53	=53	=53	=53	=53	=53	=53	=53	=53	=53
8E\L	.	8r	8r	.	8r	.	8r	.	8r	.	.	(32a/LLL	Do-	.	8r	.	8r	.	8r	.	8r	.
.	.	.	.	.	.	.	.	.	.	.	.	32g#/	.	.	.	.	.	.	.	.	.	.
.	.	.	.	.	.	.	.	.	.	.	.	32b/	-mi-	.	.	.	.	.	.	.	.	.
.	.	.	.	.	.	.	.	.	.	.	.	32a/JJ)	.	.	.	.	.	.	.	.	.	.
8e\J	.	8B/L	8G#/L	.	16B\	Do-	16e\	Do-	16g#\	Do-	.	8g#/J	-ni	.	8g#\L	.	8b\L	.	8b\L	.	8gg#\L	.
.	.	.	.	.	16G#\	-mi-	16e\	-mi-	16g#\	-mi-	.	.	.	.	.	.	.	.	.	.	.	.
8E\	.	8B/J	8G#/J	.	8E\	ni	8e\	ni	8g#\	ni	.	8r	.	.	8g#\J	.	8b\J	.	8b\J	.	8gg#\J	.
8r	.	8r	8r	.	8r	.	8r	.	8r	.	.	8b\	qui	.	8r	.	8r	.	8r	.	8r	.
=54	=54	=54	=54	=54	=54	=54	=54	=54	=54	=54	=54	=54	=54	=54	=54	=54	=54	=54	=54	=54	=54	=54
16r	.	16r	8r	.	16r	.	16r	.	16r	.	.	16b\LL	ve-	.	2r	.	2r	.	2r	.	2r	.
16G#\LL	.	16e\LL	.	.	16E\KL	qui	16G#/	qui	16b\KL	qui	.	16ee\J	.	.	.	.	.	.	.	.	.	.
!	!	!	!	!	!	!	!LO:N:vis=16	!	!	!	!	!	!	!	!	!	!	!	!	!	!	!
16G#\	.	16e\	8B/L	.	8E\J	ve-	8G#/	ve-	8b\J	ve-	.	8.ee\J	-nit	.	.	.	.	.	.	.	.	.
16G#\JJ	.	16e\JJ	.	.	.	.	.	.	.	.	.	.	.	.	.	.	.	.	.	.	.	.
*	*	*tremolo	*	*	*	*	*	*	*	*	*	*	*	*	*	*	*	*	*	*	*	*
8G#\L	.	16e\LL	8B/	.	8E\	-nit	8G#/	-nit	8b\	-nit	.	.	.	.	.	.	.	.	.	.	.	.
.	.	16e\	.	.	.	.	.	.	.	.	.	16b\LL	qui	.	.	.	.	.	.	.	.	.
8G#\J	.	16e\	8B/J	.	8r	.	8r	.	8r	.	.	16a\	.	.	.	.	.	.	.	.	.	.
.	.	16e\JJ	.	.	.	.	.	.	.	.	.	16g#\JJ	.	.	.	.	.	.	.	.	.	.
*	*	*Xtremolo	*	*	*	*	*	*	*	*	*	*	*	*	*	*	*	*	*	*	*	*
=55	=55	=55	=55	=55	=55	=55	=55	=55	=55	=55	=55	=55	=55	=55	=55	=55	=55	=55	=55	=55	=55	=55
!	!	!LO:N:vis=8	!	!	!	!	!	!	!	!	!	!	!	!	!	!	!	!	!	!	!	!
16r	.	16r	8r	.	16r	.	16r	.	16r	.	.	(32g#/LLL	ve-	.	2r	.	2r	.	2r	.	2r	.
.	.	.	.	.	.	.	.	.	.	.	.	32f#/	.	.	.	.	.	.	.	.	.	.
*	*	*	*	*	*	*ij	*	*ij	*	*ij	*	*	*	*	*	*	*	*	*	*	*	*
!	!	!LO:TX:t=P:problem=mixed beam	!	!	!	!	!	!	!	!	!	!	!	!	!	!	!	!	!	!	!	!
16A\LL	.	16a\LL	.	.	16F#\KL	qui	16c#\	qui	16a\	qui	.	32e#X/	.	.	.	.	.	.	.	.	.	.
.	.	.	.	.	.	.	.	.	.	.	.	32f#/JJ)	.	.	.	.	.	.	.	.	.	.
16A\	.	16A/	8c#/L	.	8F#\J	ve-	8c#\L	ve-	8a\L	ve-	.	8f#/J	-nit	.	.	.	.	.	.	.	.	.
16A\JJ	.	16A/JJ	.	.	.	.	.	.	.	.	.	.	.	.	.	.	.	.	.	.	.	.
*	*	*tremolo	*	*	*	*	*	*	*	*	*	*	*	*	*	*	*	*	*	*	*	*
!	!	!	!	!	!	!	!	!	!	!	!	!LO:LB:g=original	!	!	!	!	!	!	!	!	!	!
8A\	.	16A/LL	8c#/J	.	8F#\	-nit	8c#\J	-nit	8a\J	-nit	.	16r	.	.	.	.	.	.	.	.	.	.
*	*	*	*	*	*	*Xij	*	*Xij	*	*Xij	*	*	*	*	*	*	*	*	*	*	*	*
.	.	16A/	.	.	.	.	.	.	.	.	.	16f#/LL	In	.	.	.	.	.	.	.	.	.
8r	.	16A/	8r	.	8r	.	8r	.	8r	.	.	16g#/	.	.	.	.	.	.	.	.	.	.
.	.	16A/JJ	.	.	.	.	.	.	.	.	.	16a/JJ	.	.	.	.	.	.	.	.	.	.
=56	=56	=56	=56	=56	=56	=56	=56	=56	=56	=56	=56	=56	=56	=56	=56	=56	=56	=56	=56	=56	=56	=56
!LO:TX:t=P:problem=mixed beam	!	!	!	!	!	!	!	!	!	!	!	!	!	!	!	!	!	!	!	!	!	!
!	!	!	!LO:LB:g=original	!	!	!	!	!	!	!	!	!	!	!	!	!	!	!	!	!	!	!
!LO:LB:g=original	!	!LO:LB:g=original	!	!	!	!	!	!	!	!	!	!	!	!	!	!	!	!	!	!	!	!
8G#\L	.	8B/L	16e/	.	8G#\	In	8e\	In	8b\	In	.	16b\LL	no-	.	2r	.	2r	.	2r	.	2r	.
.	.	.	16r	.	.	.	.	.	.	.	.	16ee\	.	.	.	.	.	.	.	.	.	.
.	.	.	.	.	16qqA/	.	.	.	.	.	.	.	.	.	.	.	.	.	.	.	.	.
8A\	.	8B/	16d#X/	.	16A\	no-	16e\	no-	16cc#\	no-	.	(32dd#X\L	-mi-	.	.	.	.	.	.	.	.	.
.	.	.	.	.	.	.	.	.	.	.	.	32cc#\	.	.	.	.	.	.	.	.	.	.
.	.	.	16r	.	16A\	-mi	16e\	-mi-	16cc#\	-mi-	.	32b\	.	.	.	.	.	.	.	.	.	.
.	.	.	.	.	.	.	.	.	.	.	.	32a\JJJ)	.	.	.	.	.	.	.	.	.	.
!	!	!	!	!	!	!	!	!	!LO:LB:g=original	!	!	!	!	!	!	!	!	!	!	!	!	!
!	!	!	!	!	!LO:LB:g=original	!	!	!	!	!	!	!	!	!	!	!	!	!	!	!	!	!
8B\	.	8B/	16f#/	.	8B\	no-	8d#X\	-ne	8a\	-ne	.	32g#/LLL	-ne	.	.	.	.	.	.	.	.	.
.	.	.	.	.	.	.	.	.	.	.	.	32f#/	.	.	.	.	.	.	.	.	.	.
.	.	.	16r	.	.	.	.	.	.	.	.	(32a/	Do-	.	.	.	.	.	.	.	.	.
.	.	.	.	.	.	.	.	.	.	.	.	32g#/JJJ	.	.	.	.	.	.	.	.	.	.
*	*	*	*	*	*	*	*	*ij	*	*ij	*	*	*	*	*	*	*	*	*	*	*	*
!	!	!	!	!	!	!	!	!	!LO:TX:t=P:problem=niepewna interpretacja powtórki słownej	!	!	!	!	!	!	!	!	!	!	!	!	!
!	!	!	!	!	!	!	!LO:TX:t=P:problem=niepewna interpretacja powtórki słownej	!	!	!	!	!	!	!	!	!	!	!	!	!	!	!
8BB/J	.	8B/J	16d#/	.	16B\	-mi-	16d#\	mi-	16a\	mi-	.	32cc#/LLL	.	.	.	.	.	.	.	.	.	.
.	.	.	.	.	.	.	.	.	.	.	.	32b/	.	.	.	.	.	.	.	.	.	.
.	.	.	16r	.	16B\	-ne	16d#\	-ne	16a\	-ne	.	32a/)	.	.	.	.	.	.	.	.	.	.
*	*	*	*	*	*	*	*	*Xij	*	*Xij	*	*	*	*	*	*	*	*	*	*	*	*
.	.	.	.	.	.	.	.	.	.	.	.	32d#X/JJJ	.	.	.	.	.	.	.	.	.	.
*	*	*Xtremolo	*	*	*	*	*	*	*	*	*	*	*	*	*	*	*	*	*	*	*	*
=57	=57	=57	=57	=57	=57	=57	=57	=57	=57	=57	=57	=57	=57	=57	=57	=57	=57	=57	=57	=57	=57	=57
!	!	!	!	!	!	!	!LO:LB:g=original	!	!	!	!	!	!	!	!	!	!	!	!	!	!	!
!	!	!	!	!	!	!	!LO:SIC:v:s=8.d#\	!	!	!	!	!	!	!	!	!	!	!	!	!	!	!
16r	.	8B/L	8r	.	8.B\L	Do-	8.d\	Do-	8.a\	Do-	.	8.f#/L	.	.	2r	.	2r	.	2r	.	2r	.
16D#X\LL	.	.	.	.	.	.	.	.	.	.	.	.	.	.	.	.	.	.	.	.	.	.
16F#\	.	8B/J	8d#X/L	.	.	.	.	.	.	.	.	.	.	.	.	.	.	.	.	.	.	.
!	!	!	!	!	!	!	!LO:SIC:v:s=16d#\	!	!	!	!	!	!	!	!	!	!	!	!	!	!	!
16B\JJ	.	.	.	.	16B\Jk	-mi-	16d\	-mi-	16a\	-mi-	.	(32g#/LL	-mi-	.	.	.	.	.	.	.	.	.
.	.	.	.	.	.	.	.	.	.	.	.	32f#/JJJ)	.	.	.	.	.	.	.	.	.	.
8E\	.	8G#/	8e/J	.	8E\	-ni	8e\	-ni	8g#\	-ni	.	8e/	-ni	.	.	.	.	.	.	.	.	.
8r	.	8r	8r	.	8r	.	8r	.	8r	.	.	8r	.	.	.	.	.	.	.	.	.	.
=58	=58	=58	=58	=58	=58	=58	=58	=58	=58	=58	=58	=58	=58	=58	=58	=58	=58	=58	=58	=58	=58	=58
16r	.	16r	8r	.	2r	.	2r	.	2r	.	.	2r	.	.	2r	.	2r	.	2r	.	2r	.
16e\LL	.	16E/LL	.	.	.	.	.	.	.	.	.	.	.	.	.	.	.	.	.	.	.	.
16B\	.	16G#/	8e/L	.	.	.	.	.	.	.	.	.	.	.	.	.	.	.	.	.	.	.
16G#\JJ	.	16B/JJ	.	.	.	.	.	.	.	.	.	.	.	.	.	.	.	.	.	.	.	.
8E\	.	8e\	8g#/	.	.	.	.	.	.	.	.	.	.	.	.	.	.	.	.	.	.	.
8r	.	8r	8e/J	.	.	.	.	.	.	.	.	.	.	.	.	.	.	.	.	.	.	.
=59	=59	=59	=59	=59	=59	=59	=59	=59	=59	=59	=59	=59	=59	=59	=59	=59	=59	=59	=59	=59	=59	=59
!	!	!LO:N:vis=8	!	!	!	!	!	!	!	!	!	!	!	!	!	!	!	!	!	!	!	!
16r	.	16r	8r	.	2r	.	2r	.	2r	.	.	2r	.	.	2r	.	2r	.	2r	.	2r	.
16A\LL	.	16B\LL	.	.	.	.	.	.	.	.	.	.	.	.	.	.	.	.	.	.	.	.
16F#\	.	16d#X\	8d#X/L	.	.	.	.	.	.	.	.	.	.	.	.	.	.	.	.	.	.	.
16D#X\JJ	.	16f#\JJ	.	.	.	.	.	.	.	.	.	.	.	.	.	.	.	.	.	.	.	.
8BB/	.	8B/	8f#/	.	.	.	.	.	.	.	.	.	.	.	.	.	.	.	.	.	.	.
8r	.	8r	8d#/J	.	.	.	.	.	.	.	.	.	.	.	.	.	.	.	.	.	.	.
=60	=60	=60	=60	=60	=60	=60	=60	=60	=60	=60	=60	=60	=60	=60	=60	=60	=60	=60	=60	=60	=60	=60
16r	.	16r	8r	.	2r	.	2r	.	2r	.	.	2r	.	.	2r	.	2r	.	2r	.	2r	.
16BB/LL	.	16b\LL	.	.	.	.	.	.	.	.	.	.	.	.	.	.	.	.	.	.	.	.
!	!	!	!LO:SIC:v:s=8d#/L	!	!	!	!	!	!	!	!	!	!	!	!	!	!	!	!	!	!	!
16D#X/	.	16f#\	8d/L	.	.	.	.	.	.	.	.	.	.	.	.	.	.	.	.	.	.	.
!	!	!LO:SIC:v:s=16d#X\JJ	!	!	!	!	!	!	!	!	!	!	!	!	!	!	!	!	!	!	!	!
16F#/JJ	.	16d\JJ	.	.	.	.	.	.	.	.	.	.	.	.	.	.	.	.	.	.	.	.
!LO:TX:t=P:problem=mixed beam	!	!	!	!	!	!	!	!	!	!	!	!	!	!	!	!	!	!	!	!	!	!
8B\L	.	8B/L	8f#/	.	.	.	.	.	.	.	.	.	.	.	.	.	.	.	.	.	.	.
!	!	!	!LO:SIC:v:s=8d#/J	!	!	!	!	!	!	!	!	!	!	!	!	!	!	!	!	!	!	!
8BB/J	.	8B/J	8d/J	.	.	.	.	.	.	.	.	.	.	.	.	.	.	.	.	.	.	.
=61	=61	=61	=61	=61	=61	=61	=61	=61	=61	=61	=61	=61	=61	=61	=61	=61	=61	=61	=61	=61	=61	=61
8E\	.	8G#/L	8g#/L	.	2r	.	2r	.	2r	.	.	2r	.	.	2r	.	2r	.	2r	.	2r	.
8r	.	8G#/	8g#/	.	.	.	.	.	.	.	.	.	.	.	.	.	.	.	.	.	.	.
8C#/	.	8F#/	8a/	.	.	.	.	.	.	.	.	.	.	.	.	.	.	.	.	.	.	.
8r	.	8F#/J	8a/J	.	.	.	.	.	.	.	.	.	.	.	.	.	.	.	.	.	.	.
=62	=62	=62	=62	=62	=62	=62	=62	=62	=62	=62	=62	=62	=62	=62	=62	=62	=62	=62	=62	=62	=62	=62
!LO:TX:t=P:problem=mixed beam	!	!	!	!	!	!	!	!	!	!	!	!	!	!	!	!	!	!	!	!	!	!
8GG#/L	.	8E/L	8e/L	.	2r	.	2r	.	2r	.	.	2r	.	.	2r	.	2r	.	2r	.	2r	.
8AA/	.	8F#/	8f#/J	.	.	.	.	.	.	.	.	.	.	.	.	.	.	.	.	.	.	.
8BB/	.	8G#/	16e/LL	.	.	.	.	.	.	.	.	.	.	.	.	.	.	.	.	.	.	.
.	.	.	16g#/	.	.	.	.	.	.	.	.	.	.	.	.	.	.	.	.	.	.	.
8B\J	.	8B/J	16f#/	.	.	.	.	.	.	.	.	.	.	.	.	.	.	.	.	.	.	.
.	.	.	16A/JJ	.	.	.	.	.	.	.	.	.	.	.	.	.	.	.	.	.	.	.
=63	=63	=63	=63	=63	=63	=63	=63	=63	=63	=63	=63	=63	=63	=63	=63	=63	=63	=63	=63	=63	=63	=63
8E|\L	.	8B/	16G#/LL	.	2r	.	2r	.	2r	.	.	4r	.	.	2r	.	2r	.	2r	.	2r	.
.	.	.	16e/	.	.	.	.	.	.	.	.	.	.	.	.	.	.	.	.	.	.	.
(16F#\L	.	8r	16f#/	.	.	.	.	.	.	.	.	.	.	.	.	.	.	.	.	.	.	.
16G#\JJ)	.	.	16g#/JJ	.	.	.	.	.	.	.	.	.	.	.	.	.	.	.	.	.	.	.
8A\	.	4r	8a/L	.	.	.	.	.	.	.	.	8r	.	.	.	.	.	.	.	.	.	.
16r	.	.	8f#/J	.	.	.	.	.	.	.	.	16.ee\LL	Be-	.	.	.	.	.	.	.	.	.
16G#\	.	.	.	.	.	.	.	.	.	.	.	.	.	.	.	.	.	.	.	.	.	.
.	.	.	.	.	.	.	.	.	.	.	.	32ee\JJk	-ne-	.	.	.	.	.	.	.	.	.
=64	=64	=64	=64	=64	=64	=64	=64	=64	=64	=64	=64	=64	=64	=64	=64	=64	=64	=64	=64	=64	=64	=64
!LO:LB:g=original	!	!	!LO:LB:g=original	!	!	!	!	!	!	!	!	!	!	!	!	!	!	!	!	!	!	!
8A\	.	8r	16c#/LL	.	8r	.	8r	.	8r	.	.	8aa\L	-dic-	.	16r	.	16r	.	16r	.	16r	.
.	.	.	16c#/	.	.	.	.	.	.	.	.	.	.	.	16c#/LL	.	16a\LL	.	16cc#\LL	.	16aa\LL	.
8r	.	(32A/LLL	16A/	.	16A\LL	Be-	16c#\	Be-	16a\	Be-	.	8a\J	-tus	.	16c#/	.	16a\	.	16cc#\	.	16aa\	.
.	.	32c#/	.	.	.	.	.	.	.	.	.	.	.	.	.	.	.	.	.	.	.	.
.	.	32e/	16c#/JJ	.	16A\JJ	-ne-	16c#\	-ne-	16a\	-ne-	.	.	.	.	16c#/JJ	.	16a\JJ	.	16cc#\JJ	.	16aa\JJ	.
.	.	32c#/JJJ)	.	.	.	.	.	.	.	.	.	.	.	.	.	.	.	.	.	.	.	.
!	!	!	!	!	!LO:TX:t=P:problem=mixed beam	!	!	!	!	!	!	!	!	!	!	!	!	!	!	!	!	!
8AA/	.	8A/	8A/	.	8A\L	-dic-	8e\L	-dic-	8cc#\L	-dic-	.	16r	.	.	8c#/	.	8a\	.	8cc#\	.	8aa\	.
.	.	.	.	.	.	.	.	.	.	.	.	16a\LL	qui	.	.	.	.	.	.	.	.	.
8r	.	8r	8r	.	8AA/J	-tus	8c#\J	-tus	8a\J	-tus	.	16cc#\	.	.	8r	.	8r	.	8r	.	8r	.
.	.	.	.	.	.	.	.	.	.	.	.	16ee\JJ	.	.	.	.	.	.	.	.	.	.
=65	=65	=65	=65	=65	=65	=65	=65	=65	=65	=65	=65	=65	=65	=65	=65	=65	=65	=65	=65	=65	=65	=65
!	!	!LO:LB:g=original	!	!	!	!	!	!	!	!	!	!	!	!	!	!	!	!	!	!	!	!
8E\	.	8r	16r	.	8.r	.	8.r	.	8.r	.	.	(16ee\LL	ve-	.	16r	.	16r	.	16r	.	16r	.
.	.	.	16d/LL	.	.	.	.	.	.	.	.	16b\J)	.	.	16e/LL	.	16b\LL	.	16b\LL	.	16gg#\LL	.
8r	.	(32G#/LLL	16B/	.	.	.	.	.	.	.	.	8b|\J	-nit	.	16e/	.	16b\	.	16b\	.	16gg#\	.
.	.	32B/	.	.	.	.	.	.	.	.	.	.	.	.	.	.	.	.	.	.	.	.
.	.	32e/	16d/JJ	.	16E\	qui	16d\	qui	16b\	qui	.	.	.	.	16e/JJ	.	16b\JJ	.	16b\JJ	.	16gg#\JJ	.
.	.	32B/JJJ)	.	.	.	.	.	.	.	.	.	.	.	.	.	.	.	.	.	.	.	.
8e\	.	8G#/	8B/	.	8E\L	ve-	8d\L	ve-	8b\L	ve-	.	16r	.	.	8e/	.	8b\	.	8b\	.	8gg#\	.
.	.	.	.	.	.	.	.	.	.	.	.	16b\LL	In	.	.	.	.	.	.	.	.	.
8r	.	8r	8r	.	8G#\J	-nit	8B\J	-nit	8e\J	-nit	.	16cc#\	.	.	8r	.	8r	.	8r	.	8r	.
.	.	.	.	.	.	.	.	.	.	.	.	16dd\JJ	.	.	.	.	.	.	.	.	.	.
=66	=66	=66	=66	=66	=66	=66	=66	=66	=66	=66	=66	=66	=66	=66	=66	=66	=66	=66	=66	=66	=66	=66
!	!	!	!	!	!	!	!	!	!	!	!	!LO:LB:g=original	!	!	!	!	!	!	!	!	!	!
8A\	.	16e\	8A/L	.	2r	.	2r	.	2r	.	.	16cc#\LL	no-	.	8c#/	.	8a\	.	8a/	.	8cc#\	.
.	.	16r	.	.	.	.	.	.	.	.	.	16ee\	.	.	.	.	.	.	.	.	.	.
8r	.	16A/	8c#/	.	.	.	.	.	.	.	.	16a\	-mi-	.	8r	.	8r	.	8r	.	8r	.
.	.	16r	.	.	.	.	.	.	.	.	.	16cc#\JJ	-ne	.	.	.	.	.	.	.	.	.
8D\L	.	8B/L	8G#/	.	.	.	.	.	.	.	.	16b\LL	Do-	.	8e/	.	8b\	.	8g#/	.	8b\	.
.	.	.	.	.	.	.	.	.	.	.	.	16ee\	.	.	.	.	.	.	.	.	.	.
8E\J	.	8G#/J	8B/J	.	.	.	.	.	.	.	.	16g#\	.	.	8r	.	8r	.	8r	.	8r	.
.	.	.	.	.	.	.	.	.	.	.	.	16b\JJ	-mi-	.	.	.	.	.	.	.	.	.
=67	=67	=67	=67	=67	=67	=67	=67	=67	=67	=67	=67	=67	=67	=67	=67	=67	=67	=67	=67	=67	=67	=67
!	!	!	!	!	!	!	!	!	!	!	!	!	!	!	!	!	!	!	!LO:LB:g=original	!	!	!
16r	.	16r	8A/L	.	8r	.	8r	.	8r	.	.	4a\	-ni	.	16r	.	16r	.	16r	.	16r	.
16A\LL	.	16A/LL	.	.	.	.	.	.	.	.	.	.	.	.	16c#/LL	.	16a\LL	.	16cc#\LL	.	16aa\LL	.
16E\	.	16c#/	8c#/	.	16A\LL	Be-	16c#\LL	Be-	16a\LL	Be-	.	.	.	.	16c#/	.	16a\	.	16cc#\	.	16aa\	.
16C#\JJ	.	16e/JJ	.	.	16A\JJ	-ne-	16e\JJ	-ne-	16a\JJ	-ne-	.	.	.	.	16c#/JJ	.	16a\JJ	.	16cc#\JJ	.	16aa\JJ	.
!	!	!	!	!	!LO:TX:t=P:problem=mixed beam	!	!	!	!	!	!	!	!	!	!	!	!	!	!	!	!	!
8AA/	.	8a\	8A/J	.	16A\LL	-dic-	16c#\	-dic-	16a\	-dic-	.	16r	.	.	8c#/	.	8a\	.	8cc#\	.	8aa\	.
.	.	.	.	.	16AA/JJ	-tus	16c#\	-tus	16a\	-tus	.	16b\LL	In	.	.	.	.	.	.	.	.	.
8r	.	8r	8r	.	8r	.	8r	.	8r	.	.	16cc#\	.	.	8r	.	8r	.	8r	.	8r	.
.	.	.	.	.	.	.	.	.	.	.	.	16dd\JJ	.	.	.	.	.	.	.	.	.	.
=68	=68	=68	=68	=68	=68	=68	=68	=68	=68	=68	=68	=68	=68	=68	=68	=68	=68	=68	=68	=68	=68	=68
8C#/L	.	8e\L	8A/L	.	4r	.	4r	.	4r	.	.	(16ee\LL	no-	.	2r	.	2r	.	2r	.	2r	.
.	.	.	.	.	.	.	.	.	.	.	.	16aa\	.	.	.	.	.	.	.	.	.	.
8D/	.	8f#\	8B/	.	.	.	.	.	.	.	.	32gg#\L	-mi-	.	.	.	.	.	.	.	.	.
.	.	.	.	.	.	.	.	.	.	.	.	32ff#\	.	.	.	.	.	.	.	.	.	.
.	.	.	.	.	.	.	.	.	.	.	.	32ee\	-ne	.	.	.	.	.	.	.	.	.
.	.	.	.	.	.	.	.	.	.	.	.	32dd\JJJ)	.	.	.	.	.	.	.	.	.	.
8E/	.	8c#\	8A/	.	8e\L	qui	8c#\	qui	8a\	qui	.	8cc#\L	Do-	.	.	.	.	.	.	.	.	.
8EE/J	.	8G#\J	8d/J	.	8E\J	ve-	8d\	ve-	8g#\	ve-	.	8bT\J	-mi-	.	.	.	.	.	.	.	.	.
=69	=69	=69	=69	=69	=69	=69	=69	=69	=69	=69	=69	=69	=69	=69	=69	=69	=69	=69	=69	=69	=69	=69
8AA/	.	16A/LL	8r	.	8A\	-nit.	8c#\	-nit.	8a\	-nit.	.	8a\	-ni	.	2r	.	2r	.	2r	.	2r	.
.	.	16e/	.	.	.	.	.	.	.	.	.	.	.	.	.	.	.	.	.	.	.	.
!	!	!	!LO:N:vis=16	!	!	!	!	!	!	!	!	!	!	!	!	!	!	!	!	!	!	!
8r	.	16c#/	32A/LLL	.	8r	.	8r	.	8r	.	.	8r	.	.	.	.	.	.	.	.	.	.
!	!	!	!LO:N:vis=16	!	!	!	!	!	!	!	!	!	!	!	!	!	!	!	!	!	!	!
.	.	.	32c#/	p	.	.	.	.	.	.	.	.	.	.	.	.	.	.	.	.	.	.
!	!	!	!LO:N:vis=16	!	!	!	!	!	!	!	!	!	!	!	!	!	!	!	!	!	!	!
.	.	16e/JJ	32e/	.	.	.	.	.	.	.	.	.	.	.	.	.	.	.	.	.	.	.
!	!	!	!LO:N:vis=16	!	!	!	!	!	!	!	!	!	!	!	!	!	!	!	!	!	!	!
.	.	.	32c#/JJJ	.	.	.	.	.	.	.	.	.	.	.	.	.	.	.	.	.	.	.
8A\	.	8c#/	8A/	.	4r	.	4r	.	4r	.	.	4r	.	.	.	.	.	.	.	.	.	.
8r	.	8r	8r	.	.	.	.	.	.	.	.	.	.	.	.	.	.	.	.	.	.	.
=70	=70	=70	=70	=70	=70	=70	=70	=70	=70	=70	=70	=70	=70	=70	=70	=70	=70	=70	=70	=70	=70	=70
!	!	!	!	!	!LO:TX:a:i:t=13	!	!	!	!	!	!	!	!	!	!	!	!	!	!	!	!	!
!	!	!	!	!	!	!	!	!	!LO:LB:g=original	!	!	!	!	!	!	!	!	!	!	!	!	!
!	!	!	!LO:LB:g=original	!	!	!	!	!	!	!	!	!	!	!	!	!	!	!	!	!	!	!
8r	.	16r	8r	.	2r	.	2r	.	2r	.	.	2r	.	.	2r	.	2r	.	2r	.	2r	.
.	.	16e/LL	.	.	.	.	.	.	.	.	.	.	.	.	.	.	.	.	.	.	.	.
8E\L	.	16B/	32G#/LLL	.	.	.	.	.	.	.	.	.	.	.	.	.	.	.	.	.	.	.
.	.	.	(32B/	.	.	.	.	.	.	.	.	.	.	.	.	.	.	.	.	.	.	.
.	.	16G#/JJ	32e/	.	.	.	.	.	.	.	.	.	.	.	.	.	.	.	.	.	.	.
.	.	.	32B/JJJ)	.	.	.	.	.	.	.	.	.	.	.	.	.	.	.	.	.	.	.
8e\J	.	8E/	8d 8B/	.	.	.	.	.	.	.	.	.	.	.	.	.	.	.	.	.	.	.
8r	.	8r	8r	.	.	.	.	.	.	.	.	.	.	.	.	.	.	.	.	.	.	.
=71	=71	=71	=71	=71	=71	=71	=71	=71	=71	=71	=71	=71	=71	=71	=71	=71	=71	=71	=71	=71	=71	=71
8G#\	.	16r	16r	.	2r	.	2r	.	2r	.	.	2r	.	.	2r	.	2r	.	2r	.	2r	.
.	.	16eLL 16d\	16g#/LL	.	.	.	.	.	.	.	.	.	.	.	.	.	.	.	.	.	.	.
8r	.	16eJJ 16d\	16g#/JJ	.	.	.	.	.	.	.	.	.	.	.	.	.	.	.	.	.	.	.
.	.	16r	16r	.	.	.	.	.	.	.	.	.	.	.	.	.	.	.	.	.	.	.
8E\	.	4r	4r	.	.	.	.	.	.	.	.	.	.	.	.	.	.	.	.	.	.	.
8r	.	.	.	.	.	.	.	.	.	.	.	.	.	.	.	.	.	.	.	.	.	.
=72	=72	=72	=72	=72	=72	=72	=72	=72	=72	=72	=72	=72	=72	=72	=72	=72	=72	=72	=72	=72	=72	=72
!	!	!	!	!	!	!	!	!	!	!	!	!	!	!	!	!	!	!	!	!	!LO:LB:g=original	!
8r	.	8r	8r	.	2r	.	2r	.	2r	.	.	2r	.	.	8r	.	8r	.	8r	.	8r	.
!LO:TX:t=P:problem=mixed beam	!	!	!	!	!	!	!	!	!	!	!	!	!	!	!LO:TX:t=P:problem=mixed beam	!	!	!	!	!	!	!
8AA/L	.	8A/L	8e/L	.	.	.	.	.	.	.	.	.	.	.	8a\L	.	8cc#\L	.	8ee\L	.	8ccc#\L	.
8A\J	.	8A/J	8c#/J	.	.	.	.	.	.	.	.	.	.	.	8c#/J	.	8a\J	.	8cc#\J	.	8aa\J	.
8r	.	8r	8r	.	.	.	.	.	.	.	.	.	.	.	8r	.	8r	.	8r	.	8r	.
=73	=73	=73	=73	=73	=73	=73	=73	=73	=73	=73	=73	=73	=73	=73	=73	=73	=73	=73	=73	=73	=73	=73
!	!	!LO:LB:g=original	!	!	!	!	!	!	!	!	!	!	!	!	!	!	!	!	!	!	!	!
*	*	*tremolo	*	*	*	*	*	*	*	*	*	*	*	*	*	*	*	*	*	*	*	*
8r	.	16d/LL	8d/	.	2r	.	2r	.	2r	.	.	2r	.	.	2r	.	2r	.	2r	.	2r	.
.	.	16A/	.	.	.	.	.	.	.	.	.	.	.	.	.	.	.	.	.	.	.	.
8D\	.	16d/	8r	.	.	.	.	.	.	.	.	.	.	.	.	.	.	.	.	.	.	.
.	.	16A/	.	.	.	.	.	.	.	.	.	.	.	.	.	.	.	.	.	.	.	.
8r	.	16d/	8d/	.	.	.	.	.	.	.	.	.	.	.	.	.	.	.	.	.	.	.
.	.	16A/	.	.	.	.	.	.	.	.	.	.	.	.	.	.	.	.	.	.	.	.
8d\	.	16d/	8r	.	.	.	.	.	.	.	.	.	.	.	.	.	.	.	.	.	.	.
.	.	16A/JJ	.	.	.	.	.	.	.	.	.	.	.	.	.	.	.	.	.	.	.	.
=74	=74	=74	=74	=74	=74	=74	=74	=74	=74	=74	=74	=74	=74	=74	=74	=74	=74	=74	=74	=74	=74	=74
!LO:LB:g=original	!	!	!	!	!	!	!	!	!	!	!	!	!	!	!	!	!	!	!	!	!	!
8r	.	16d/LL	8d/	.	2r	.	2r	.	2r	.	.	2r	.	.	2r	.	2r	.	2r	.	2r	.
.	.	16A/	.	.	.	.	.	.	.	.	.	.	.	.	.	.	.	.	.	.	.	.
8D\	.	16d/	8r	.	.	.	.	.	.	.	.	.	.	.	.	.	.	.	.	.	.	.
.	.	16A/	.	.	.	.	.	.	.	.	.	.	.	.	.	.	.	.	.	.	.	.
8r	.	16d/	8d/	.	.	.	.	.	.	.	.	.	.	.	.	.	.	.	.	.	.	.
.	.	16A/	.	.	.	.	.	.	.	.	.	.	.	.	.	.	.	.	.	.	.	.
(8d\	.	16d/	8r	.	.	.	.	.	.	.	.	.	.	.	.	.	.	.	.	.	.	.
.	.	16A/JJ	.	.	.	.	.	.	.	.	.	.	.	.	.	.	.	.	.	.	.	.
*	*	*Xtremolo	*	*	*	*	*	*	*	*	*	*	*	*	*	*	*	*	*	*	*	*
=75	=75	=75	=75	=75	=75	=75	=75	=75	=75	=75	=75	=75	=75	=75	=75	=75	=75	=75	=75	=75	=75	=75
8c#\)	.	16c#/LL	8c#/	.	2r	.	2r	.	2r	.	.	2r	.	.	8r	.	8r	.	8r	.	8r	.
.	.	16A/	.	.	.	.	.	.	.	.	.	.	.	.	.	.	.	.	.	.	.	.
!	!	!	!	!	!	!	!	!	!	!	!	!	!	!	!	!	!	!LO:DY:b:t=pp.	!	!	!	!
!	!	!	!	!	!	!	!	!	!	!	!	!	!	!	!	!LO:DY:b:t=pp.	!	!	!	!	!	!
8r	.	16c#/	8r	.	.	.	.	.	.	.	.	.	.	.	8c#/L	pp	8a\L	pp	8cc#\L	.	8aa\L	.
.	.	16A/JJ	.	.	.	.	.	.	.	.	.	.	.	.	.	.	.	.	.	.	.	.
8A\	.	8c#\	8A/	.	.	.	.	.	.	.	.	.	.	.	8c#/J	.	8a\J	.	8cc#\J	.	8aa\J	.
16r	.	8r	8r	.	.	.	.	.	.	.	.	.	.	.	8r	.	8r	.	8r	.	8r	.
(16A\	.	.	.	.	.	.	.	.	.	.	.	.	.	.	.	.	.	.	.	.	.	.
=76	=76	=76	=76	=76	=76	=76	=76	=76	=76	=76	=76	=76	=76	=76	=76	=76	=76	=76	=76	=76	=76	=76
8B\)	.	8G#/L	8B/	.	2r	.	2r	.	2r	.	.	2r	.	.	8e/	.	8b\	.	8b\	.	8dd\	.
8r	.	8B/	4d/	.	.	.	.	.	.	.	.	.	.	.	8r	.	8r	.	8r	.	8r	.
16E\	.	8e/	.	.	.	.	.	.	.	.	.	.	.	.	8c#/	.	8b\	.	8b\	.	8dd\	.
16r	.	.	.	.	.	.	.	.	.	.	.	.	.	.	.	.	.	.	.	.	.	.
16G#\	.	8G#/J	8B/	.	.	.	.	.	.	.	.	.	.	.	8r	.	8r	.	8r	.	8r	.
16r	.	.	.	.	.	.	.	.	.	.	.	.	.	.	.	.	.	.	.	.	.	.
=77	=77	=77	=77	=77	=77	=77	=77	=77	=77	=77	=77	=77	=77	=77	=77	=77	=77	=77	=77	=77	=77	=77
!LO:TX:t=P:problem=nadmiarowy takt w cor & clno 1 in G	!	!LO:TX:t=P:problem=nadmiarowy takt w cor & clno 1 in G	!LO:TX:t=P:problem=nadmiarowy takt w cor & clno 1 in G	!	!LO:TX:t=P:problem=nadmiarowy takt w cor & clno 1 in G	!	!LO:TX:t=P:problem=nadmiarowy takt w cor & clno 1 in G	!	!LO:TX:t=P:problem=nadmiarowy takt w cor & clno 1 in G	!	!	!	!	!	!LO:TX:t=P:problem=nadmiarowy takt w cor & clno 1 in G	!	!LO:TX:t=P:problem=takt zapisany repetycją	!	!LO:TX:t=P:problem=nadmiarowy takt w cor & clno 1 in G	!	!LO:TX:t=P:problem=nadmiarowy takt w cor & clno 1 in G	!
2ryy	.	2ryy	2ryy	.	2ryy	.	2ryy	.	2ryy	.	.	2r	.	.	2ryy	.	8b\	.	2ryy	.	2ryy	.
.	.	.	.	.	.	.	.	.	.	.	.	.	.	.	.	.	8r	.	.	.	.	.
.	.	.	.	.	.	.	.	.	.	.	.	.	.	.	.	.	8b\	.	.	.	.	.
.	.	.	.	.	.	.	.	.	.	.	.	.	.	.	.	.	8r	.	.	.	.	.
=78	=78	=78	=78	=78	=78	=78	=78	=78	=78	=78	=78	=78	=78	=78	=78	=78	=78	=78	=78	=78	=78	=78
!	!	!	!	!	!	!	!	!	!	!	!	!LO:TX:t=P:problem=nadmiarowy takt w cor & clno 1 in G	!	!	!	!	!	!	!	!	!	!
!	!	!	!	!	!	!	!	!	!	!	!	!	!	!	!	!	!LO:LB:g=original	!	!	!	!	!
8A\	.	8A/	8c#/	.	2r	.	2r	.	2r	.	.	2ryy	.	.	4c#/	.	8a\	.	8g#/	.	8cc#\	.
8r	.	8r	8r	.	.	.	.	.	.	.	.	.	.	.	.	.	8r	.	8r	.	8r	.
8AA/	.	8a\	8a/	.	.	.	.	.	.	.	.	.	.	.	8r	.	8r	.	8r	.	8r	.
8r	.	8r	8r	.	.	.	.	.	.	.	.	.	.	.	16c#/LL	.	16a\LL	.	16a/LL	.	16cc#\LL	.
.	.	.	.	.	.	.	.	.	.	.	.	.	.	.	16c#/JJ	.	16a\JJ	.	16a/JJ	.	16cc#\JJ	.
=79	=79	=79	=79	=79	=79	=79	=79	=79	=79	=79	=79	=79	=79	=79	=79	=79	=79	=79	=79	=79	=79	=79
!	!	!	!	!	!	!	!	!	!	!	!	!	!	!	!LO:LB:g=original	!	!	!	!	!	!	!
8AA/	.	8A/	8f#/	.	2r	.	2r	.	2r	.	.	2r	.	.	2r	.	2r	.	8a/	.	8dd\	.
8r	.	8r	8r	.	.	.	.	.	.	.	.	.	.	.	.	.	.	.	8r	.	8r	.
8A\	.	8a\	8d/	.	.	.	.	.	.	.	.	.	.	.	.	.	.	.	4r	.	4r	.
8r	.	8r	8r	.	.	.	.	.	.	.	.	.	.	.	.	.	.	.	.	.	.	.
=80	=80	=80	=80	=80	=80	=80	=80	=80	=80	=80	=80	=80	=80	=80	=80	=80	=80	=80	=80	=80	=80	=80
!	!	!	!LO:LB:g=original	!	!	!	!	!	!	!	!	!	!	!	!	!	!	!	!	!	!	!
8AA/	.	8r	8r	.	2r	.	2r	.	2r	.	.	2r	.	.	4r	.	4r	.	4r	.	4r	.
!	!	!LO:TX:t=P:problem=mixed beam	!	!	!	!	!	!	!	!	!	!	!	!	!	!	!	!	!	!	!	!
8r	.	8a\L	8a/L	.	.	.	.	.	.	.	.	.	.	.	.	.	.	.	.	.	.	.
8A\	.	8A/J	8a/J	.	.	.	.	.	.	.	.	.	.	.	16r	.	16r	.	16r	.	16r	.
.	.	.	.	.	.	.	.	.	.	.	.	.	.	.	16c#/LL	.	16a\LL	.	16cc#\LL	.	16ee\LL	.
8r	.	8r	8r	.	.	.	.	.	.	.	.	.	.	.	16c#/	.	16a\	.	16cc#\	.	16ee\	.
.	.	.	.	.	.	.	.	.	.	.	.	.	.	.	16c#/JJ	.	16a\JJ	.	16cc#\JJ	.	16ee\JJ	.
=81	=81	=81	=81	=81	=81	=81	=81	=81	=81	=81	=81	=81	=81	=81	=81	=81	=81	=81	=81	=81	=81	=81
8r	.	8r	8r	.	2r	.	2r	.	2r	.	.	2r	.	.	16r	.	16r	.	16r	.	16r	.
.	.	.	.	.	.	.	.	.	.	.	.	.	.	.	16g#\LL	.	16b\LL	.	16dd\LL	.	16ee\LL	.
8E\L	.	8G#/L	8b\L	.	.	.	.	.	.	.	.	.	.	.	16g#\	.	16b\	.	16dd\	.	16ee\	.
.	.	.	.	.	.	.	.	.	.	.	.	.	.	.	16g#\JJ	.	16b\JJ	.	16dd\JJ	.	16ee\JJ	.
8e\J	.	8G#/J	8b\J	.	.	.	.	.	.	.	.	.	.	.	8g#\	.	8b\	.	8dd\	.	8ee\	.
8r	.	8r	8r	.	.	.	.	.	.	.	.	.	.	.	8r	.	8r	.	8r	.	8r	.
=82	=82	=82	=82	=82	=82	=82	=82	=82	=82	=82	=82	=82	=82	=82	=82	=82	=82	=82	=82	=82	=82	=82
16A\	.	8E/L	16a/	.	2r	.	2r	.	2r	.	.	2r	.	.	2r	.	2r	.	2r	.	2r	.
16r	.	.	16r	.	.	.	.	.	.	.	.	.	.	.	.	.	.	.	.	.	.	.
16d\	.	8A/J	16f#/	.	.	.	.	.	.	.	.	.	.	.	.	.	.	.	.	.	.	.
16r	.	.	16r	.	.	.	.	.	.	.	.	.	.	.	.	.	.	.	.	.	.	.
!	!	!LO:TX:t=P:problem=mixed beam	!	!	!	!	!	!	!	!	!	!	!	!	!	!	!	!	!	!	!	!
16e\	.	8e\L	16a/	.	.	.	.	.	.	.	.	.	.	.	.	.	.	.	.	.	.	.
16r	.	.	16r	.	.	.	.	.	.	.	.	.	.	.	.	.	.	.	.	.	.	.
16E\	.	8E/J	16f#/	.	.	.	.	.	.	.	.	.	.	.	.	.	.	.	.	.	.	.
16r	.	.	16ryy	.	.	.	.	.	.	.	.	.	.	.	.	.	.	.	.	.	.	.
=83	=83	=83	=83	=83	=83	=83	=83	=83	=83	=83	=83	=83	=83	=83	=83	=83	=83	=83	=83	=83	=83	=83
!LO:TX:t=P:problem=mixed beam	!	!	!	!	!	!	!	!	!	!	!	!	!	!	!	!	!	!	!	!	!	!
!LO:LB:g=original	!	!	!	!	!	!	!	!	!	!	!	!	!	!	!	!	!	!	!	!	!	!
8A\L	.	16B/LL	16G#/LL	.	2r	.	2r	.	2r	.	.	2r	.	.	(4e/	.	(4b\	.	(4b/	.	(4dd\	.
.	.	16d/	16B/	.	.	.	.	.	.	.	.	.	.	.	.	.	.	.	.	.	.	.
8E\	.	16B/	16G#/	.	.	.	.	.	.	.	.	.	.	.	.	.	.	.	.	.	.	.
.	.	16d/JJ	16B/JJ	.	.	.	.	.	.	.	.	.	.	.	.	.	.	.	.	.	.	.
8AA/J	.	8A/	8A/	.	.	.	.	.	.	.	.	.	.	.	8c#/)	.	8a\)	.	8a/)	.	8cc#\)	.
8r	.	8r	8r	.	.	.	.	.	.	.	.	.	.	.	8r	.	8r	.	8r	.	8r	.
==	==	==	==	==	==	==	==	==	==	==	==	==	==	==	==	==	==	==	==	==	==	==
*-	*-	*-	*-	*-	*-	*-	*-	*-	*-	*-	*-	*-	*-	*-	*-	*-	*-	*-	*-	*-	*-	*-
!!!system-decoration: [(g1)][(g2)][(g3)][(g4)]s11
!!!ENC: Filip Voros
!!!END: 2021-12-08
!!!ENC: Kamil Watkowski
!!!END: 2021-12-10
!!!RDF**kern: | = vertical stroke
